ZJU-Walker/trossen_data/scripts/labels/verify_actions.csv
dataset,episode_id,frame_index,timestamp,global_index,task_index,action_json,action_left_gripper,action_right_gripper,action_left_joint_0,action_left_joint_1,action_left_joint_2,action_left_joint_3,action_left_joint_4,action_left_joint_5,action_left_joint_6,action_right_joint_0,action_right_joint_1,action_right_joint_2,action_right_joint_3,action_right_joint_4,action_right_joint_5,action_right_joint_6
data_robot_give_0526,000001,0,0.0,134,0,"[0.01201647985726595, 0.0009536888683214784, 0.014686808921396732, 0.010109102353453636, 0.020027466118335724, 0.04482337832450867, -0.006030021235346794, -0.12531471252441406, 1.3632028102874756, 0.5006866455078125, 0.7291905283927917, 0.05092698708176613, 0.054741740226745605, 0.017028268426656723]",-0.006030021235346794,0.017028268426656723,0.01201647985726595,0.0009536888683214784,0.014686808921396732,0.010109102353453636,0.020027466118335724,0.04482337832450867,-0.006030021235346794,-0.12531471252441406,1.3632028102874756,0.5006866455078125,0.7291905283927917,0.05092698708176613,0.054741740226745605,0.017028268426656723
data_robot_give_0526,000001,1,0.03333333507180214,135,0,"[0.01201647985726595, 0.0009536888683214784, 0.014686808921396732, 0.010109102353453636, 0.02040894143283367, 0.04482337832450867, -0.006030021235346794, -0.12531471252441406, 1.3632028102874756, 0.5006866455078125, 0.7272831201553345, 0.05092698708176613, 0.054741740226745605, 0.017031606286764145]",-0.006030021235346794,0.017031606286764145,0.01201647985726595,0.0009536888683214784,0.014686808921396732,0.010109102353453636,0.02040894143283367,0.04482337832450867,-0.006030021235346794,-0.12531471252441406,1.3632028102874756,0.5006866455078125,0.7272831201553345,0.05092698708176613,0.054741740226745605,0.017031606286764145
data_robot_give_0526,000001,2,0.06666667014360428,136,0,"[0.01201647985726595, 0.0009536888683214784, 0.014686808921396732, 0.010109102353453636, 0.020027466118335724, 0.04482337832450867, -0.00602334551513195, -0.12531471252441406, 1.3632028102874756, 0.5006866455078125, 0.726138710975647, 0.05092698708176613, 0.05436026677489281, 0.0170249305665493]",-0.00602334551513195,0.0170249305665493,0.01201647985726595,0.0009536888683214784,0.014686808921396732,0.010109102353453636,0.020027466118335724,0.04482337832450867,-0.00602334551513195,-0.12531471252441406,1.3632028102874756,0.5006866455078125,0.726138710975647,0.05092698708176613,0.05436026677489281,0.0170249305665493
data_robot_give_0526,000001,3,0.10000000149011612,137,0,"[0.01201647985726595, 0.0009536888683214784, 0.014686808921396732, 0.010109102353453636, 0.02040894143283367, 0.045204851776361465, -0.006030021235346794, -0.12531471252441406, 1.3632028102874756, 0.5006866455078125, 0.7257572412490845, 0.05130846053361893, 0.05436026677489281, 0.0170249305665493]",-0.006030021235346794,0.0170249305665493,0.01201647985726595,0.0009536888683214784,0.014686808921396732,0.010109102353453636,0.02040894143283367,0.045204851776361465,-0.006030021235346794,-0.12531471252441406,1.3632028102874756,0.5006866455078125,0.7257572412490845,0.05130846053361893,0.05436026677489281,0.0170249305665493
data_robot_give_0526,000001,4,0.13333334028720856,138,0,"[0.01201647985726595, 0.0009536888683214784, 0.014686808921396732, 0.010109102353453636, 0.02040894143283367, 0.04482337832450867, -0.006030021235346794, -0.12531471252441406, 1.3632028102874756, 0.5006866455078125, 0.7257572412490845, 0.05130846053361893, 0.05436026677489281, 0.017028268426656723]",-0.006030021235346794,0.017028268426656723,0.01201647985726595,0.0009536888683214784,0.014686808921396732,0.010109102353453636,0.02040894143283367,0.04482337832450867,-0.006030021235346794,-0.12531471252441406,1.3632028102874756,0.5006866455078125,0.7257572412490845,0.05130846053361893,0.05436026677489281,0.017028268426656723
data_robot_give_0526,000001,5,0.1666666716337204,139,0,"[0.01201647985726595, 0.0009536888683214784, 0.014686808921396732, 0.010109102353453636, 0.02040894143283367, 0.045204851776361465, -0.006030021235346794, -0.12531471252441406, 1.362821340560913, 0.5006866455078125, 0.7257572412490845, 0.05130846053361893, 0.05436026677489281, 0.01702159270644188]",-0.006030021235346794,0.01702159270644188,0.01201647985726595,0.0009536888683214784,0.014686808921396732,0.010109102353453636,0.02040894143283367,0.045204851776361465,-0.006030021235346794,-0.12531471252441406,1.362821340560913,0.5006866455078125,0.7257572412490845,0.05130846053361893,0.05436026677489281,0.01702159270644188
data_robot_give_0526,000001,6,0.20000000298023224,140,0,"[0.012397955171763897, 0.0009536888683214784, 0.014686808921396732, 0.010109102353453636, 0.020027466118335724, 0.04482337832450867, -0.006026683375239372, -0.12531471252441406, 1.362058401107788, 0.5006866455078125, 0.725375771522522, 0.05130846053361893, 0.05436026677489281, 0.017028268426656723]",-0.006026683375239372,0.017028268426656723,0.012397955171763897,0.0009536888683214784,0.014686808921396732,0.010109102353453636,0.020027466118335724,0.04482337832450867,-0.006026683375239372,-0.12531471252441406,1.362058401107788,0.5006866455078125,0.725375771522522,0.05130846053361893,0.05436026677489281,0.017028268426656723
data_robot_give_0526,000001,7,0.23333333432674408,141,0,"[0.01201647985726595, 0.0009536888683214784, 0.014686808921396732, 0.010109102353453636, 0.020027466118335724, 0.04482337832450867, -0.006026683375239372, -0.12531471252441406, 1.3616769313812256, 0.5006866455078125, 0.7257572412490845, 0.05130846053361893, 0.05436026677489281, 0.0170249305665493]",-0.006026683375239372,0.0170249305665493,0.01201647985726595,0.0009536888683214784,0.014686808921396732,0.010109102353453636,0.020027466118335724,0.04482337832450867,-0.006026683375239372,-0.12531471252441406,1.3616769313812256,0.5006866455078125,0.7257572412490845,0.05130846053361893,0.05436026677489281,0.0170249305665493
data_robot_give_0526,000001,8,0.2666666805744171,142,0,"[0.01201647985726595, 0.0009536888683214784, 0.014686808921396732, 0.010109102353453636, 0.02040894143283367, 0.045204851776361465, -0.006030021235346794, -0.12531471252441406, 1.3609139919281006, 0.5006866455078125, 0.725375771522522, 0.05130846053361893, 0.05436026677489281, 0.0170249305665493]",-0.006030021235346794,0.0170249305665493,0.01201647985726595,0.0009536888683214784,0.014686808921396732,0.010109102353453636,0.02040894143283367,0.045204851776361465,-0.006030021235346794,-0.12531471252441406,1.3609139919281006,0.5006866455078125,0.725375771522522,0.05130846053361893,0.05436026677489281,0.0170249305665493
data_robot_give_0526,000001,9,0.30000001192092896,143,0,"[0.012397955171763897, 0.0009536888683214784, 0.014686808921396732, 0.010109102353453636, 0.020027466118335724, 0.04482337832450867, -0.006026683375239372, -0.12531471252441406, 1.3601510524749756, 0.5006866455078125, 0.7249943017959595, 0.05130846053361893, 0.05436026677489281, 0.017028268426656723]",-0.006026683375239372,0.017028268426656723,0.012397955171763897,0.0009536888683214784,0.014686808921396732,0.010109102353453636,0.020027466118335724,0.04482337832450867,-0.006026683375239372,-0.12531471252441406,1.3601510524749756,0.5006866455078125,0.7249943017959595,0.05130846053361893,0.05436026677489281,0.017028268426656723
data_robot_give_0526,000001,10,0.3333333432674408,144,0,"[0.01201647985726595, 0.0009536888683214784, 0.014686808921396732, 0.010109102353453636, 0.02040894143283367, 0.04482337832450867, -0.006030021235346794, -0.12531471252441406, 1.3586251735687256, 0.5006866455078125, 0.7249943017959595, 0.05130846053361893, 0.05436026677489281, 0.01702159270644188]",-0.006030021235346794,0.01702159270644188,0.01201647985726595,0.0009536888683214784,0.014686808921396732,0.010109102353453636,0.02040894143283367,0.04482337832450867,-0.006030021235346794,-0.12531471252441406,1.3586251735687256,0.5006866455078125,0.7249943017959595,0.05130846053361893,0.05436026677489281,0.01702159270644188
data_robot_give_0526,000001,11,0.36666667461395264,145,0,"[0.01201647985726595, 0.0009536888683214784, 0.014686808921396732, 0.010109102353453636, 0.020027466118335724, 0.04482337832450867, -0.006026683375239372, -0.12531471252441406, 1.3578622341156006, 0.5006866455078125, 0.7246127724647522, 0.05130846053361893, 0.05436026677489281, 0.0170249305665493]",-0.006026683375239372,0.0170249305665493,0.01201647985726595,0.0009536888683214784,0.014686808921396732,0.010109102353453636,0.020027466118335724,0.04482337832450867,-0.006026683375239372,-0.12531471252441406,1.3578622341156006,0.5006866455078125,0.7246127724647522,0.05130846053361893,0.05436026677489281,0.0170249305665493
data_robot_give_0526,000001,12,0.4000000059604645,146,0,"[0.01201647985726595, 0.0009536888683214784, 0.014686808921396732, 0.010109102353453636, 0.02040894143283367, 0.04482337832450867, -0.006030021235346794, -0.12531471252441406, 1.356717824935913, 0.5006866455078125, 0.7246127724647522, 0.05130846053361893, 0.05436026677489281, 0.017031606286764145]",-0.006030021235346794,0.017031606286764145,0.01201647985726595,0.0009536888683214784,0.014686808921396732,0.010109102353453636,0.02040894143283367,0.04482337832450867,-0.006030021235346794,-0.12531471252441406,1.356717824935913,0.5006866455078125,0.7246127724647522,0.05130846053361893,0.05436026677489281,0.017031606286764145
data_robot_give_0526,000001,13,0.4333333373069763,147,0,"[0.01201647985726595, 0.0009536888683214784, 0.014686808921396732, 0.010109102353453636, 0.020027466118335724, 0.04482337832450867, -0.006030021235346794, -0.12531471252441406, 1.355954885482788, 0.5006866455078125, 0.7246127724647522, 0.05130846053361893, 0.05436026677489281, 0.01702159270644188]",-0.006030021235346794,0.01702159270644188,0.01201647985726595,0.0009536888683214784,0.014686808921396732,0.010109102353453636,0.020027466118335724,0.04482337832450867,-0.006030021235346794,-0.12531471252441406,1.355954885482788,0.5006866455078125,0.7246127724647522,0.05130846053361893,0.05436026677489281,0.01702159270644188
data_robot_give_0526,000001,14,0.46666666865348816,148,0,"[0.01201647985726595, 0.0009536888683214784, 0.014686808921396732, 0.010109102353453636, 0.020027466118335724, 0.04482337832450867, -0.006026683375239372, -0.12531471252441406, 1.355954885482788, 0.5006866455078125, 0.7242313027381897, 0.05130846053361893, 0.05436026677489281, 0.0170249305665493]",-0.006026683375239372,0.0170249305665493,0.01201647985726595,0.0009536888683214784,0.014686808921396732,0.010109102353453636,0.020027466118335724,0.04482337832450867,-0.006026683375239372,-0.12531471252441406,1.355954885482788,0.5006866455078125,0.7242313027381897,0.05130846053361893,0.05436026677489281,0.0170249305665493
data_robot_give_0526,000001,15,0.5,149,0,"[0.01201647985726595, 0.0009536888683214784, 0.014686808921396732, 0.010109102353453636, 0.020027466118335724, 0.04482337832450867, -0.006030021235346794, -0.12531471252441406, 1.355954885482788, 0.5006866455078125, 0.7234683632850647, 0.05130846053361893, 0.05436026677489281, 0.017028268426656723]",-0.006030021235346794,0.017028268426656723,0.01201647985726595,0.0009536888683214784,0.014686808921396732,0.010109102353453636,0.020027466118335724,0.04482337832450867,-0.006030021235346794,-0.12531471252441406,1.355954885482788,0.5006866455078125,0.7234683632850647,0.05130846053361893,0.05436026677489281,0.017028268426656723
data_robot_give_0526,000001,16,0.5333333611488342,150,0,"[0.01201647985726595, 0.0009536888683214784, 0.014686808921396732, 0.010109102353453636, 0.020027466118335724, 0.04482337832450867, -0.006030021235346794, -0.12531471252441406, 1.355954885482788, 0.5006866455078125, 0.7223239541053772, 0.05130846053361893, 0.05436026677489281, 0.01702159270644188]",-0.006030021235346794,0.01702159270644188,0.01201647985726595,0.0009536888683214784,0.014686808921396732,0.010109102353453636,0.020027466118335724,0.04482337832450867,-0.006030021235346794,-0.12531471252441406,1.355954885482788,0.5006866455078125,0.7223239541053772,0.05130846053361893,0.05436026677489281,0.01702159270644188
data_robot_give_0526,000001,17,0.5666666626930237,151,0,"[0.01201647985726595, 0.0009536888683214784, 0.014686808921396732, 0.010109102353453636, 0.020027466118335724, 0.04482337832450867, -0.006026683375239372, -0.12531471252441406, 1.355954885482788, 0.5006866455078125, 0.7219424843788147, 0.05130846053361893, 0.05436026677489281, 0.0170249305665493]",-0.006026683375239372,0.0170249305665493,0.01201647985726595,0.0009536888683214784,0.014686808921396732,0.010109102353453636,0.020027466118335724,0.04482337832450867,-0.006026683375239372,-0.12531471252441406,1.355954885482788,0.5006866455078125,0.7219424843788147,0.05130846053361893,0.05436026677489281,0.0170249305665493
data_robot_give_0526,000001,18,0.6000000238418579,152,0,"[0.01201647985726595, 0.0009536888683214784, 0.014686808921396732, 0.010109102353453636, 0.020027466118335724, 0.04482337832450867, -0.006030021235346794, -0.12531471252441406, 1.355954885482788, 0.5006866455078125, 0.7219424843788147, 0.05130846053361893, 0.05436026677489281, 0.017028268426656723]",-0.006030021235346794,0.017028268426656723,0.01201647985726595,0.0009536888683214784,0.014686808921396732,0.010109102353453636,0.020027466118335724,0.04482337832450867,-0.006030021235346794,-0.12531471252441406,1.355954885482788,0.5006866455078125,0.7219424843788147,0.05130846053361893,0.05436026677489281,0.017028268426656723
data_robot_give_0526,000001,19,0.6333333253860474,153,0,"[0.01201647985726595, 0.0009536888683214784, 0.014686808921396732, 0.010109102353453636, 0.020027466118335724, 0.045204851776361465, -0.00602334551513195, -0.12531471252441406, 1.355954885482788, 0.5006866455078125, 0.7219424843788147, 0.05130846053361893, 0.05436026677489281, 0.01702159270644188]",-0.00602334551513195,0.01702159270644188,0.01201647985726595,0.0009536888683214784,0.014686808921396732,0.010109102353453636,0.020027466118335724,0.045204851776361465,-0.00602334551513195,-0.12531471252441406,1.355954885482788,0.5006866455078125,0.7219424843788147,0.05130846053361893,0.05436026677489281,0.01702159270644188
data_robot_give_0526,000001,20,0.6666666865348816,154,0,"[0.01201647985726595, 0.0009536888683214784, 0.014686808921396732, 0.010109102353453636, 0.02040894143283367, 0.04482337832450867, -0.00602334551513195, -0.12531471252441406, 1.355954885482788, 0.5006866455078125, 0.7219424843788147, 0.05130846053361893, 0.05436026677489281, 0.017028268426656723]",-0.00602334551513195,0.017028268426656723,0.01201647985726595,0.0009536888683214784,0.014686808921396732,0.010109102353453636,0.02040894143283367,0.04482337832450867,-0.00602334551513195,-0.12531471252441406,1.355954885482788,0.5006866455078125,0.7219424843788147,0.05130846053361893,0.05436026677489281,0.017028268426656723
data_robot_give_0526,000001,21,0.699999988079071,155,0,"[0.01201647985726595, 0.0009536888683214784, 0.014686808921396732, 0.010109102353453636, 0.020027466118335724, 0.045204851776361465, -0.006030021235346794, -0.12531471252441406, 1.355954885482788, 0.5006866455078125, 0.7219424843788147, 0.05130846053361893, 0.05436026677489281, 0.0170249305665493]",-0.006030021235346794,0.0170249305665493,0.01201647985726595,0.0009536888683214784,0.014686808921396732,0.010109102353453636,0.020027466118335724,0.045204851776361465,-0.006030021235346794,-0.12531471252441406,1.355954885482788,0.5006866455078125,0.7219424843788147,0.05130846053361893,0.05436026677489281,0.0170249305665493
data_robot_give_0526,000001,22,0.7333333492279053,156,0,"[0.01201647985726595, 0.0009536888683214784, 0.014686808921396732, 0.010109102353453636, 0.02040894143283367, 0.04482337832450867, -0.006030021235346794, -0.12531471252441406, 1.355954885482788, 0.5006866455078125, 0.7219424843788147, 0.05130846053361893, 0.05436026677489281, 0.01702159270644188]",-0.006030021235346794,0.01702159270644188,0.01201647985726595,0.0009536888683214784,0.014686808921396732,0.010109102353453636,0.02040894143283367,0.04482337832450867,-0.006030021235346794,-0.12531471252441406,1.355954885482788,0.5006866455078125,0.7219424843788147,0.05130846053361893,0.05436026677489281,0.01702159270644188
data_robot_give_0526,000001,23,0.7666666507720947,157,0,"[0.012397955171763897, 0.0009536888683214784, 0.014686808921396732, 0.010109102353453636, 0.020027466118335724, 0.045204851776361465, -0.006030021235346794, -0.12531471252441406, 1.355954885482788, 0.5006866455078125, 0.7219424843788147, 0.05130846053361893, 0.05436026677489281, 0.0170249305665493]",-0.006030021235346794,0.0170249305665493,0.012397955171763897,0.0009536888683214784,0.014686808921396732,0.010109102353453636,0.020027466118335724,0.045204851776361465,-0.006030021235346794,-0.12531471252441406,1.355954885482788,0.5006866455078125,0.7219424843788147,0.05130846053361893,0.05436026677489281,0.0170249305665493
data_robot_give_0526,000001,24,0.800000011920929,158,0,"[0.01201647985726595, 0.0009536888683214784, 0.014686808921396732, 0.010109102353453636, 0.020027466118335724, 0.04482337832450867, -0.006030021235346794, -0.12531471252441406, 1.355954885482788, 0.5006866455078125, 0.7215610146522522, 0.05130846053361893, 0.05436026677489281, 0.0170249305665493]",-0.006030021235346794,0.0170249305665493,0.01201647985726595,0.0009536888683214784,0.014686808921396732,0.010109102353453636,0.020027466118335724,0.04482337832450867,-0.006030021235346794,-0.12531471252441406,1.355954885482788,0.5006866455078125,0.7215610146522522,0.05130846053361893,0.05436026677489281,0.0170249305665493
data_robot_give_0526,000001,25,0.8333333134651184,159,0,"[0.01201647985726595, 0.0009536888683214784, 0.014686808921396732, 0.010109102353453636, 0.020027466118335724, 0.045204851776361465, -0.006030021235346794, -0.12531471252441406, 1.355954885482788, 0.5006866455078125, 0.7215610146522522, 0.05130846053361893, 0.05436026677489281, 0.01702159270644188]",-0.006030021235346794,0.01702159270644188,0.01201647985726595,0.0009536888683214784,0.014686808921396732,0.010109102353453636,0.020027466118335724,0.045204851776361465,-0.006030021235346794,-0.12531471252441406,1.355954885482788,0.5006866455078125,0.7215610146522522,0.05130846053361893,0.05436026677489281,0.01702159270644188
data_robot_give_0526,000001,26,0.8666666746139526,160,0,"[0.01201647985726595, 0.0009536888683214784, 0.014686808921396732, 0.010109102353453636, 0.02040894143283367, 0.04482337832450867, -0.00602334551513195, -0.12531471252441406, 1.355954885482788, 0.5006866455078125, 0.7215610146522522, 0.05130846053361893, 0.05436026677489281, 0.0170249305665493]",-0.00602334551513195,0.0170249305665493,0.01201647985726595,0.0009536888683214784,0.014686808921396732,0.010109102353453636,0.02040894143283367,0.04482337832450867,-0.00602334551513195,-0.12531471252441406,1.355954885482788,0.5006866455078125,0.7215610146522522,0.05130846053361893,0.05436026677489281,0.0170249305665493
data_robot_give_0526,000001,27,0.8999999761581421,161,0,"[0.01201647985726595, 0.0009536888683214784, 0.014686808921396732, 0.010109102353453636, 0.020027466118335724, 0.04482337832450867, -0.006030021235346794, -0.12531471252441406, 1.355954885482788, 0.5006866455078125, 0.7215610146522522, 0.05130846053361893, 0.05436026677489281, 0.0170249305665493]",-0.006030021235346794,0.0170249305665493,0.01201647985726595,0.0009536888683214784,0.014686808921396732,0.010109102353453636,0.020027466118335724,0.04482337832450867,-0.006030021235346794,-0.12531471252441406,1.355954885482788,0.5006866455078125,0.7215610146522522,0.05130846053361893,0.05436026677489281,0.0170249305665493
data_robot_give_0526,000001,28,0.9333333373069763,162,0,"[0.01201647985726595, 0.0009536888683214784, 0.014686808921396732, 0.010109102353453636, 0.020027466118335724, 0.04482337832450867, -0.006030021235346794, -0.12531471252441406, 1.355954885482788, 0.5006866455078125, 0.7215610146522522, 0.05130846053361893, 0.05436026677489281, 0.0170249305665493]",-0.006030021235346794,0.0170249305665493,0.01201647985726595,0.0009536888683214784,0.014686808921396732,0.010109102353453636,0.020027466118335724,0.04482337832450867,-0.006030021235346794,-0.12531471252441406,1.355954885482788,0.5006866455078125,0.7215610146522522,0.05130846053361893,0.05436026677489281,0.0170249305665493
data_robot_give_0526,000001,29,0.9666666388511658,163,0,"[0.012397955171763897, 0.0009536888683214784, 0.014686808921396732, 0.010109102353453636, 0.020027466118335724, 0.04482337832450867, -0.006030021235346794, -0.12531471252441406, 1.355954885482788, 0.5006866455078125, 0.7215610146522522, 0.05130846053361893, 0.05436026677489281, 0.01702159270644188]",-0.006030021235346794,0.01702159270644188,0.012397955171763897,0.0009536888683214784,0.014686808921396732,0.010109102353453636,0.020027466118335724,0.04482337832450867,-0.006030021235346794,-0.12531471252441406,1.355954885482788,0.5006866455078125,0.7215610146522522,0.05130846053361893,0.05436026677489281,0.01702159270644188
data_robot_give_0526,000001,30,1.0,164,0,"[0.01201647985726595, 0.0009536888683214784, 0.014686808921396732, 0.010109102353453636, 0.020027466118335724, 0.045204851776361465, -0.006026683375239372, -0.12531471252441406, 1.355954885482788, 0.5006866455078125, 0.7215610146522522, 0.05130846053361893, 0.05436026677489281, 0.017028268426656723]",-0.006026683375239372,0.017028268426656723,0.01201647985726595,0.0009536888683214784,0.014686808921396732,0.010109102353453636,0.020027466118335724,0.045204851776361465,-0.006026683375239372,-0.12531471252441406,1.355954885482788,0.5006866455078125,0.7215610146522522,0.05130846053361893,0.05436026677489281,0.017028268426656723
data_robot_give_0526,000001,31,1.0333333015441895,165,0,"[0.012397955171763897, 0.0009536888683214784, 0.014686808921396732, 0.010109102353453636, 0.020027466118335724, 0.04482337832450867, -0.006030021235346794, -0.12531471252441406, 1.355954885482788, 0.5006866455078125, 0.7215610146522522, 0.05130846053361893, 0.05436026677489281, 0.0170249305665493]",-0.006030021235346794,0.0170249305665493,0.012397955171763897,0.0009536888683214784,0.014686808921396732,0.010109102353453636,0.020027466118335724,0.04482337832450867,-0.006030021235346794,-0.12531471252441406,1.355954885482788,0.5006866455078125,0.7215610146522522,0.05130846053361893,0.05436026677489281,0.0170249305665493
data_robot_give_0526,000001,32,1.0666667222976685,166,0,"[0.01201647985726595, 0.0009536888683214784, 0.014686808921396732, 0.010109102353453636, 0.020027466118335724, 0.04482337832450867, -0.00602334551513195, -0.12531471252441406, 1.355954885482788, 0.5006866455078125, 0.7215610146522522, 0.05130846053361893, 0.05436026677489281, 0.01702159270644188]",-0.00602334551513195,0.01702159270644188,0.01201647985726595,0.0009536888683214784,0.014686808921396732,0.010109102353453636,0.020027466118335724,0.04482337832450867,-0.00602334551513195,-0.12531471252441406,1.355954885482788,0.5006866455078125,0.7215610146522522,0.05130846053361893,0.05436026677489281,0.01702159270644188
data_robot_give_0526,000001,33,1.100000023841858,167,0,"[0.01201647985726595, 0.0009536888683214784, 0.014686808921396732, 0.010109102353453636, 0.020027466118335724, 0.04482337832450867, -0.006030021235346794, -0.12531471252441406, 1.355954885482788, 0.5006866455078125, 0.7215610146522522, 0.05130846053361893, 0.05436026677489281, 0.01702159270644188]",-0.006030021235346794,0.01702159270644188,0.01201647985726595,0.0009536888683214784,0.014686808921396732,0.010109102353453636,0.020027466118335724,0.04482337832450867,-0.006030021235346794,-0.12531471252441406,1.355954885482788,0.5006866455078125,0.7215610146522522,0.05130846053361893,0.05436026677489281,0.01702159270644188
data_robot_give_0526,000001,34,1.1333333253860474,168,0,"[0.01201647985726595, 0.0009536888683214784, 0.014686808921396732, 0.010109102353453636, 0.020027466118335724, 0.04482337832450867, -0.006026683375239372, -0.12531471252441406, 1.355954885482788, 0.5006866455078125, 0.7211795449256897, 0.05130846053361893, 0.05436026677489281, 0.01702159270644188]",-0.006026683375239372,0.01702159270644188,0.01201647985726595,0.0009536888683214784,0.014686808921396732,0.010109102353453636,0.020027466118335724,0.04482337832450867,-0.006026683375239372,-0.12531471252441406,1.355954885482788,0.5006866455078125,0.7211795449256897,0.05130846053361893,0.05436026677489281,0.01702159270644188
data_robot_give_0526,000001,35,1.1666666269302368,169,0,"[0.01201647985726595, 0.0009536888683214784, 0.014686808921396732, 0.010109102353453636, 0.020027466118335724, 0.045204851776361465, -0.00602334551513195, -0.12531471252441406, 1.355954885482788, 0.5006866455078125, 0.7215610146522522, 0.05130846053361893, 0.05436026677489281, 0.017028268426656723]",-0.00602334551513195,0.017028268426656723,0.01201647985726595,0.0009536888683214784,0.014686808921396732,0.010109102353453636,0.020027466118335724,0.045204851776361465,-0.00602334551513195,-0.12531471252441406,1.355954885482788,0.5006866455078125,0.7215610146522522,0.05130846053361893,0.05436026677489281,0.017028268426656723
data_robot_give_0526,000001,36,1.2000000476837158,170,0,"[0.01201647985726595, 0.0009536888683214784, 0.014686808921396732, 0.010109102353453636, 0.020027466118335724, 0.04482337832450867, -0.006030021235346794, -0.12531471252441406, 1.355954885482788, 0.5006866455078125, 0.7215610146522522, 0.05130846053361893, 0.05436026677489281, 0.0170249305665493]",-0.006030021235346794,0.0170249305665493,0.01201647985726595,0.0009536888683214784,0.014686808921396732,0.010109102353453636,0.020027466118335724,0.04482337832450867,-0.006030021235346794,-0.12531471252441406,1.355954885482788,0.5006866455078125,0.7215610146522522,0.05130846053361893,0.05436026677489281,0.0170249305665493
data_robot_give_0526,000001,37,1.2333333492279053,171,0,"[0.012397955171763897, 0.0009536888683214784, 0.014686808921396732, 0.010109102353453636, 0.020027466118335724, 0.045204851776361465, -0.006030021235346794, -0.12531471252441406, 1.355954885482788, 0.5006866455078125, 0.7215610146522522, 0.05130846053361893, 0.05436026677489281, 0.01702159270644188]",-0.006030021235346794,0.01702159270644188,0.012397955171763897,0.0009536888683214784,0.014686808921396732,0.010109102353453636,0.020027466118335724,0.045204851776361465,-0.006030021235346794,-0.12531471252441406,1.355954885482788,0.5006866455078125,0.7215610146522522,0.05130846053361893,0.05436026677489281,0.01702159270644188
data_robot_give_0526,000001,38,1.2666666507720947,172,0,"[0.01201647985726595, 0.0009536888683214784, 0.014686808921396732, 0.010109102353453636, 0.020027466118335724, 0.04482337832450867, -0.006026683375239372, -0.12531471252441406, 1.355954885482788, 0.5006866455078125, 0.7211795449256897, 0.05130846053361893, 0.05436026677489281, 0.017028268426656723]",-0.006026683375239372,0.017028268426656723,0.01201647985726595,0.0009536888683214784,0.014686808921396732,0.010109102353453636,0.020027466118335724,0.04482337832450867,-0.006026683375239372,-0.12531471252441406,1.355954885482788,0.5006866455078125,0.7211795449256897,0.05130846053361893,0.05436026677489281,0.017028268426656723
data_robot_give_0526,000001,39,1.2999999523162842,173,0,"[0.01201647985726595, 0.0009536888683214784, 0.014686808921396732, 0.010109102353453636, 0.020027466118335724, 0.04482337832450867, -0.006030021235346794, -0.12531471252441406, 1.355954885482788, 0.5006866455078125, 0.7211795449256897, 0.05130846053361893, 0.05436026677489281, 0.0170249305665493]",-0.006030021235346794,0.0170249305665493,0.01201647985726595,0.0009536888683214784,0.014686808921396732,0.010109102353453636,0.020027466118335724,0.04482337832450867,-0.006030021235346794,-0.12531471252441406,1.355954885482788,0.5006866455078125,0.7211795449256897,0.05130846053361893,0.05436026677489281,0.0170249305665493
data_robot_give_0526,000001,40,1.3333333730697632,174,0,"[0.01201647985726595, 0.0009536888683214784, 0.014686808921396732, 0.010109102353453636, 0.020027466118335724, 0.04482337832450867, -0.006030021235346794, -0.12531471252441406, 1.355954885482788, 0.5006866455078125, 0.7211795449256897, 0.05130846053361893, 0.05436026677489281, 0.01702159270644188]",-0.006030021235346794,0.01702159270644188,0.01201647985726595,0.0009536888683214784,0.014686808921396732,0.010109102353453636,0.020027466118335724,0.04482337832450867,-0.006030021235346794,-0.12531471252441406,1.355954885482788,0.5006866455078125,0.7211795449256897,0.05130846053361893,0.05436026677489281,0.01702159270644188
data_robot_give_0526,000001,41,1.3666666746139526,175,0,"[0.01201647985726595, 0.0009536888683214784, 0.014686808921396732, 0.010109102353453636, 0.020027466118335724, 0.04482337832450867, -0.006030021235346794, -0.12531471252441406, 1.355954885482788, 0.5006866455078125, 0.7211795449256897, 0.05130846053361893, 0.05436026677489281, 0.017028268426656723]",-0.006030021235346794,0.017028268426656723,0.01201647985726595,0.0009536888683214784,0.014686808921396732,0.010109102353453636,0.020027466118335724,0.04482337832450867,-0.006030021235346794,-0.12531471252441406,1.355954885482788,0.5006866455078125,0.7211795449256897,0.05130846053361893,0.05436026677489281,0.017028268426656723
data_robot_give_0526,000001,42,1.399999976158142,176,0,"[0.01201647985726595, 0.0009536888683214784, 0.014686808921396732, 0.010109102353453636, 0.020027466118335724, 0.04482337832450867, -0.006026683375239372, -0.12531471252441406, 1.355954885482788, 0.5006866455078125, 0.7211795449256897, 0.05130846053361893, 0.05436026677489281, 0.0170249305665493]",-0.006026683375239372,0.0170249305665493,0.01201647985726595,0.0009536888683214784,0.014686808921396732,0.010109102353453636,0.020027466118335724,0.04482337832450867,-0.006026683375239372,-0.12531471252441406,1.355954885482788,0.5006866455078125,0.7211795449256897,0.05130846053361893,0.05436026677489281,0.0170249305665493
data_robot_give_0526,000001,43,1.4333332777023315,177,0,"[0.01201647985726595, 0.0009536888683214784, 0.014686808921396732, 0.010109102353453636, 0.020027466118335724, 0.04482337832450867, -0.006026683375239372, -0.12531471252441406, 1.355954885482788, 0.5006866455078125, 0.7211795449256897, 0.05130846053361893, 0.05436026677489281, 0.01702159270644188]",-0.006026683375239372,0.01702159270644188,0.01201647985726595,0.0009536888683214784,0.014686808921396732,0.010109102353453636,0.020027466118335724,0.04482337832450867,-0.006026683375239372,-0.12531471252441406,1.355954885482788,0.5006866455078125,0.7211795449256897,0.05130846053361893,0.05436026677489281,0.01702159270644188
data_robot_give_0526,000001,44,1.4666666984558105,178,0,"[0.01201647985726595, 0.0009536888683214784, 0.014686808921396732, 0.010109102353453636, 0.020027466118335724, 0.045204851776361465, -0.006030021235346794, -0.12531471252441406, 1.355954885482788, 0.5006866455078125, 0.7211795449256897, 0.05130846053361893, 0.05436026677489281, 0.017028268426656723]",-0.006030021235346794,0.017028268426656723,0.01201647985726595,0.0009536888683214784,0.014686808921396732,0.010109102353453636,0.020027466118335724,0.045204851776361465,-0.006030021235346794,-0.12531471252441406,1.355954885482788,0.5006866455078125,0.7211795449256897,0.05130846053361893,0.05436026677489281,0.017028268426656723
data_robot_give_0526,000001,45,1.5,179,0,"[0.01201647985726595, 0.0009536888683214784, 0.014686808921396732, 0.010109102353453636, 0.020027466118335724, 0.04482337832450867, -0.00602334551513195, -0.12531471252441406, 1.355954885482788, 0.5006866455078125, 0.7211795449256897, 0.05130846053361893, 0.05436026677489281, 0.0170249305665493]",-0.00602334551513195,0.0170249305665493,0.01201647985726595,0.0009536888683214784,0.014686808921396732,0.010109102353453636,0.020027466118335724,0.04482337832450867,-0.00602334551513195,-0.12531471252441406,1.355954885482788,0.5006866455078125,0.7211795449256897,0.05130846053361893,0.05436026677489281,0.0170249305665493
data_robot_give_0526,000001,46,1.5333333015441895,180,0,"[0.01201647985726595, 0.0009536888683214784, 0.014686808921396732, 0.010109102353453636, 0.020027466118335724, 0.04482337832450867, -0.006030021235346794, -0.12531471252441406, 1.355954885482788, 0.5006866455078125, 0.7211795449256897, 0.05130846053361893, 0.05436026677489281, 0.01702159270644188]",-0.006030021235346794,0.01702159270644188,0.01201647985726595,0.0009536888683214784,0.014686808921396732,0.010109102353453636,0.020027466118335724,0.04482337832450867,-0.006030021235346794,-0.12531471252441406,1.355954885482788,0.5006866455078125,0.7211795449256897,0.05130846053361893,0.05436026677489281,0.01702159270644188
data_robot_give_0526,000001,47,1.5666667222976685,181,0,"[0.01201647985726595, 0.0009536888683214784, 0.014686808921396732, 0.010109102353453636, 0.020027466118335724, 0.04482337832450867, -0.006030021235346794, -0.12531471252441406, 1.355954885482788, 0.5006866455078125, 0.7211795449256897, 0.05130846053361893, 0.05436026677489281, 0.017028268426656723]",-0.006030021235346794,0.017028268426656723,0.01201647985726595,0.0009536888683214784,0.014686808921396732,0.010109102353453636,0.020027466118335724,0.04482337832450867,-0.006030021235346794,-0.12531471252441406,1.355954885482788,0.5006866455078125,0.7211795449256897,0.05130846053361893,0.05436026677489281,0.017028268426656723
data_robot_give_0526,000001,48,1.600000023841858,182,0,"[0.01201647985726595, 0.0009536888683214784, 0.014686808921396732, 0.010109102353453636, 0.020027466118335724, 0.045204851776361465, -0.00602334551513195, -0.12531471252441406, 1.355954885482788, 0.5006866455078125, 0.7211795449256897, 0.05130846053361893, 0.05436026677489281, 0.0170249305665493]",-0.00602334551513195,0.0170249305665493,0.01201647985726595,0.0009536888683214784,0.014686808921396732,0.010109102353453636,0.020027466118335724,0.045204851776361465,-0.00602334551513195,-0.12531471252441406,1.355954885482788,0.5006866455078125,0.7211795449256897,0.05130846053361893,0.05436026677489281,0.0170249305665493
data_robot_give_0526,000001,49,1.6333333253860474,183,0,"[0.01201647985726595, 0.0009536888683214784, 0.014686808921396732, 0.010109102353453636, 0.020027466118335724, 0.04482337832450867, -0.006030021235346794, -0.12531471252441406, 1.355954885482788, 0.5006866455078125, 0.7211795449256897, 0.05130846053361893, 0.05436026677489281, 0.01702159270644188]",-0.006030021235346794,0.01702159270644188,0.01201647985726595,0.0009536888683214784,0.014686808921396732,0.010109102353453636,0.020027466118335724,0.04482337832450867,-0.006030021235346794,-0.12531471252441406,1.355954885482788,0.5006866455078125,0.7211795449256897,0.05130846053361893,0.05436026677489281,0.01702159270644188
data_robot_give_0526,000001,50,1.6666666269302368,184,0,"[0.01201647985726595, 0.0009536888683214784, 0.014686808921396732, 0.010109102353453636, 0.020027466118335724, 0.04482337832450867, -0.006030021235346794, -0.12531471252441406, 1.355954885482788, 0.5006866455078125, 0.7211795449256897, 0.05130846053361893, 0.05436026677489281, 0.017028268426656723]",-0.006030021235346794,0.017028268426656723,0.01201647985726595,0.0009536888683214784,0.014686808921396732,0.010109102353453636,0.020027466118335724,0.04482337832450867,-0.006030021235346794,-0.12531471252441406,1.355954885482788,0.5006866455078125,0.7211795449256897,0.05130846053361893,0.05436026677489281,0.017028268426656723
data_robot_give_0526,000001,51,1.7000000476837158,185,0,"[0.01201647985726595, 0.0009536888683214784, 0.014686808921396732, 0.010109102353453636, 0.020027466118335724, 0.045204851776361465, -0.00602334551513195, -0.12531471252441406, 1.355954885482788, 0.5006866455078125, 0.7211795449256897, 0.05130846053361893, 0.05436026677489281, 0.0170249305665493]",-0.00602334551513195,0.0170249305665493,0.01201647985726595,0.0009536888683214784,0.014686808921396732,0.010109102353453636,0.020027466118335724,0.045204851776361465,-0.00602334551513195,-0.12531471252441406,1.355954885482788,0.5006866455078125,0.7211795449256897,0.05130846053361893,0.05436026677489281,0.0170249305665493
data_robot_give_0526,000001,52,1.7333333492279053,186,0,"[0.01201647985726595, 0.0009536888683214784, 0.014686808921396732, 0.010109102353453636, 0.020027466118335724, 0.04482337832450867, -0.006030021235346794, -0.12531471252441406, 1.355954885482788, 0.5006866455078125, 0.7211795449256897, 0.05130846053361893, 0.05436026677489281, 0.01702159270644188]",-0.006030021235346794,0.01702159270644188,0.01201647985726595,0.0009536888683214784,0.014686808921396732,0.010109102353453636,0.020027466118335724,0.04482337832450867,-0.006030021235346794,-0.12531471252441406,1.355954885482788,0.5006866455078125,0.7211795449256897,0.05130846053361893,0.05436026677489281,0.01702159270644188
data_robot_give_0526,000001,53,1.7666666507720947,187,0,"[0.012397955171763897, 0.0009536888683214784, 0.014686808921396732, 0.010109102353453636, 0.020027466118335724, 0.045204851776361465, -0.006026683375239372, -0.12531471252441406, 1.355954885482788, 0.5006866455078125, 0.7211795449256897, 0.05130846053361893, 0.05436026677489281, 0.017028268426656723]",-0.006026683375239372,0.017028268426656723,0.012397955171763897,0.0009536888683214784,0.014686808921396732,0.010109102353453636,0.020027466118335724,0.045204851776361465,-0.006026683375239372,-0.12531471252441406,1.355954885482788,0.5006866455078125,0.7211795449256897,0.05130846053361893,0.05436026677489281,0.017028268426656723
data_robot_give_0526,000001,54,1.7999999523162842,188,0,"[0.01201647985726595, 0.0009536888683214784, 0.014686808921396732, 0.010109102353453636, 0.020027466118335724, 0.04482337832450867, -0.00602334551513195, -0.12531471252441406, 1.355954885482788, 0.5006866455078125, 0.7211795449256897, 0.05130846053361893, 0.05436026677489281, 0.0170249305665493]",-0.00602334551513195,0.0170249305665493,0.01201647985726595,0.0009536888683214784,0.014686808921396732,0.010109102353453636,0.020027466118335724,0.04482337832450867,-0.00602334551513195,-0.12531471252441406,1.355954885482788,0.5006866455078125,0.7211795449256897,0.05130846053361893,0.05436026677489281,0.0170249305665493
data_robot_give_0526,000001,55,1.8333333730697632,189,0,"[0.01201647985726595, 0.0009536888683214784, 0.014686808921396732, 0.010109102353453636, 0.020027466118335724, 0.04482337832450867, -0.006030021235346794, -0.12531471252441406, 1.355954885482788, 0.5006866455078125, 0.7211795449256897, 0.05130846053361893, 0.05436026677489281, 0.01702159270644188]",-0.006030021235346794,0.01702159270644188,0.01201647985726595,0.0009536888683214784,0.014686808921396732,0.010109102353453636,0.020027466118335724,0.04482337832450867,-0.006030021235346794,-0.12531471252441406,1.355954885482788,0.5006866455078125,0.7211795449256897,0.05130846053361893,0.05436026677489281,0.01702159270644188
data_robot_give_0526,000001,56,1.8666666746139526,190,0,"[0.01201647985726595, 0.0009536888683214784, 0.014686808921396732, 0.010109102353453636, 0.020027466118335724, 0.04482337832450867, -0.006026683375239372, -0.12531471252441406, 1.355954885482788, 0.5006866455078125, 0.7211795449256897, 0.05130846053361893, 0.05436026677489281, 0.017028268426656723]",-0.006026683375239372,0.017028268426656723,0.01201647985726595,0.0009536888683214784,0.014686808921396732,0.010109102353453636,0.020027466118335724,0.04482337832450867,-0.006026683375239372,-0.12531471252441406,1.355954885482788,0.5006866455078125,0.7211795449256897,0.05130846053361893,0.05436026677489281,0.017028268426656723
data_robot_give_0526,000001,57,1.899999976158142,191,0,"[0.012397955171763897, 0.0009536888683214784, 0.014686808921396732, 0.010109102353453636, 0.020027466118335724, 0.04482337832450867, -0.00602334551513195, -0.12531471252441406, 1.355954885482788, 0.5006866455078125, 0.7211795449256897, 0.05130846053361893, 0.05436026677489281, 0.0170249305665493]",-0.00602334551513195,0.0170249305665493,0.012397955171763897,0.0009536888683214784,0.014686808921396732,0.010109102353453636,0.020027466118335724,0.04482337832450867,-0.00602334551513195,-0.12531471252441406,1.355954885482788,0.5006866455078125,0.7211795449256897,0.05130846053361893,0.05436026677489281,0.0170249305665493
data_robot_give_0526,000001,58,1.9333332777023315,192,0,"[0.01201647985726595, 0.0009536888683214784, 0.014686808921396732, 0.010109102353453636, 0.02040894143283367, 0.045204851776361465, -0.006030021235346794, -0.12531471252441406, 1.355954885482788, 0.5006866455078125, 0.7211795449256897, 0.05130846053361893, 0.05436026677489281, 0.01702159270644188]",-0.006030021235346794,0.01702159270644188,0.01201647985726595,0.0009536888683214784,0.014686808921396732,0.010109102353453636,0.02040894143283367,0.045204851776361465,-0.006030021235346794,-0.12531471252441406,1.355954885482788,0.5006866455078125,0.7211795449256897,0.05130846053361893,0.05436026677489281,0.01702159270644188
data_robot_give_0526,000001,59,1.9666666984558105,193,0,"[0.01201647985726595, 0.0009536888683214784, 0.014686808921396732, 0.010109102353453636, 0.020027466118335724, 0.04482337832450867, -0.006030021235346794, -0.12531471252441406, 1.355954885482788, 0.5006866455078125, 0.7211795449256897, 0.05130846053361893, 0.05436026677489281, 0.01702159270644188]",-0.006030021235346794,0.01702159270644188,0.01201647985726595,0.0009536888683214784,0.014686808921396732,0.010109102353453636,0.020027466118335724,0.04482337832450867,-0.006030021235346794,-0.12531471252441406,1.355954885482788,0.5006866455078125,0.7211795449256897,0.05130846053361893,0.05436026677489281,0.01702159270644188
data_robot_give_0526,000001,60,2.0,194,0,"[0.01201647985726595, 0.0009536888683214784, 0.014686808921396732, 0.010109102353453636, 0.02040894143283367, 0.045204851776361465, -0.006026683375239372, -0.12531471252441406, 1.355954885482788, 0.5006866455078125, 0.7211795449256897, 0.05130846053361893, 0.05436026677489281, 0.01702159270644188]",-0.006026683375239372,0.01702159270644188,0.01201647985726595,0.0009536888683214784,0.014686808921396732,0.010109102353453636,0.02040894143283367,0.045204851776361465,-0.006026683375239372,-0.12531471252441406,1.355954885482788,0.5006866455078125,0.7211795449256897,0.05130846053361893,0.05436026677489281,0.01702159270644188
data_robot_give_0526,000001,61,2.0333333015441895,195,0,"[0.01201647985726595, 0.0009536888683214784, 0.014686808921396732, 0.010109102353453636, 0.02040894143283367, 0.04482337832450867, -0.006026683375239372, -0.12531471252441406, 1.355954885482788, 0.5006866455078125, 0.7211795449256897, 0.05130846053361893, 0.05436026677489281, 0.0170249305665493]",-0.006026683375239372,0.0170249305665493,0.01201647985726595,0.0009536888683214784,0.014686808921396732,0.010109102353453636,0.02040894143283367,0.04482337832450867,-0.006026683375239372,-0.12531471252441406,1.355954885482788,0.5006866455078125,0.7211795449256897,0.05130846053361893,0.05436026677489281,0.0170249305665493
data_robot_give_0526,000001,62,2.066666603088379,196,0,"[0.01201647985726595, 0.0009536888683214784, 0.014686808921396732, 0.010109102353453636, 0.020027466118335724, 0.04482337832450867, -0.006030021235346794, -0.12531471252441406, 1.355954885482788, 0.5006866455078125, 0.7211795449256897, 0.05130846053361893, 0.05436026677489281, 0.0170249305665493]",-0.006030021235346794,0.0170249305665493,0.01201647985726595,0.0009536888683214784,0.014686808921396732,0.010109102353453636,0.020027466118335724,0.04482337832450867,-0.006030021235346794,-0.12531471252441406,1.355954885482788,0.5006866455078125,0.7211795449256897,0.05130846053361893,0.05436026677489281,0.0170249305665493
data_robot_give_0526,000001,63,2.0999999046325684,197,0,"[0.012397955171763897, 0.0009536888683214784, 0.014686808921396732, 0.010109102353453636, 0.020027466118335724, 0.045204851776361465, -0.006030021235346794, -0.12531471252441406, 1.355954885482788, 0.5006866455078125, 0.7211795449256897, 0.05130846053361893, 0.05436026677489281, 0.01702159270644188]",-0.006030021235346794,0.01702159270644188,0.012397955171763897,0.0009536888683214784,0.014686808921396732,0.010109102353453636,0.020027466118335724,0.045204851776361465,-0.006030021235346794,-0.12531471252441406,1.355954885482788,0.5006866455078125,0.7211795449256897,0.05130846053361893,0.05436026677489281,0.01702159270644188
data_robot_give_0526,000001,64,2.133333444595337,198,0,"[0.01201647985726595, 0.0009536888683214784, 0.014686808921396732, 0.010109102353453636, 0.020027466118335724, 0.04482337832450867, -0.006030021235346794, -0.12531471252441406, 1.355954885482788, 0.5006866455078125, 0.7211795449256897, 0.05130846053361893, 0.05436026677489281, 0.01702159270644188]",-0.006030021235346794,0.01702159270644188,0.01201647985726595,0.0009536888683214784,0.014686808921396732,0.010109102353453636,0.020027466118335724,0.04482337832450867,-0.006030021235346794,-0.12531471252441406,1.355954885482788,0.5006866455078125,0.7211795449256897,0.05130846053361893,0.05436026677489281,0.01702159270644188
data_robot_give_0526,000001,65,2.1666667461395264,199,0,"[0.01201647985726595, 0.0009536888683214784, 0.014686808921396732, 0.010109102353453636, 0.02040894143283367, 0.045204851776361465, -0.006030021235346794, -0.12531471252441406, 1.355954885482788, 0.5006866455078125, 0.7211795449256897, 0.05130846053361893, 0.05436026677489281, 0.01702159270644188]",-0.006030021235346794,0.01702159270644188,0.01201647985726595,0.0009536888683214784,0.014686808921396732,0.010109102353453636,0.02040894143283367,0.045204851776361465,-0.006030021235346794,-0.12531471252441406,1.355954885482788,0.5006866455078125,0.7211795449256897,0.05130846053361893,0.05436026677489281,0.01702159270644188
data_robot_give_0526,000001,66,2.200000047683716,200,0,"[0.01201647985726595, 0.0009536888683214784, 0.014686808921396732, 0.010109102353453636, 0.020027466118335724, 0.04482337832450867, -0.006030021235346794, -0.12531471252441406, 1.355954885482788, 0.5006866455078125, 0.7211795449256897, 0.05130846053361893, 0.05436026677489281, 0.0170249305665493]",-0.006030021235346794,0.0170249305665493,0.01201647985726595,0.0009536888683214784,0.014686808921396732,0.010109102353453636,0.020027466118335724,0.04482337832450867,-0.006030021235346794,-0.12531471252441406,1.355954885482788,0.5006866455078125,0.7211795449256897,0.05130846053361893,0.05436026677489281,0.0170249305665493
data_robot_give_0526,000001,67,2.2333333492279053,201,0,"[0.01201647985726595, 0.0009536888683214784, 0.014686808921396732, 0.010109102353453636, 0.020027466118335724, 0.045204851776361465, -0.006026683375239372, -0.12531471252441406, 1.355954885482788, 0.5006866455078125, 0.7211795449256897, 0.05130846053361893, 0.05436026677489281, 0.01702159270644188]",-0.006026683375239372,0.01702159270644188,0.01201647985726595,0.0009536888683214784,0.014686808921396732,0.010109102353453636,0.020027466118335724,0.045204851776361465,-0.006026683375239372,-0.12531471252441406,1.355954885482788,0.5006866455078125,0.7211795449256897,0.05130846053361893,0.05436026677489281,0.01702159270644188
data_robot_give_0526,000001,68,2.2666666507720947,202,0,"[0.01201647985726595, 0.0009536888683214784, 0.014686808921396732, 0.010109102353453636, 0.020027466118335724, 0.04482337832450867, -0.006030021235346794, -0.12531471252441406, 1.355954885482788, 0.5006866455078125, 0.7211795449256897, 0.05130846053361893, 0.05436026677489281, 0.01702159270644188]",-0.006030021235346794,0.01702159270644188,0.01201647985726595,0.0009536888683214784,0.014686808921396732,0.010109102353453636,0.020027466118335724,0.04482337832450867,-0.006030021235346794,-0.12531471252441406,1.355954885482788,0.5006866455078125,0.7211795449256897,0.05130846053361893,0.05436026677489281,0.01702159270644188
data_robot_give_0526,000001,69,2.299999952316284,203,0,"[0.01201647985726595, 0.0009536888683214784, 0.014686808921396732, 0.010109102353453636, 0.020027466118335724, 0.04482337832450867, -0.006030021235346794, -0.12531471252441406, 1.355954885482788, 0.5006866455078125, 0.7211795449256897, 0.05130846053361893, 0.05436026677489281, 0.017028268426656723]",-0.006030021235346794,0.017028268426656723,0.01201647985726595,0.0009536888683214784,0.014686808921396732,0.010109102353453636,0.020027466118335724,0.04482337832450867,-0.006030021235346794,-0.12531471252441406,1.355954885482788,0.5006866455078125,0.7211795449256897,0.05130846053361893,0.05436026677489281,0.017028268426656723
data_robot_give_0526,000001,70,2.3333332538604736,204,0,"[0.01201647985726595, 0.0009536888683214784, 0.014686808921396732, 0.010109102353453636, 0.02040894143283367, 0.04482337832450867, -0.006030021235346794, -0.12531471252441406, 1.355954885482788, 0.5006866455078125, 0.7211795449256897, 0.05130846053361893, 0.05436026677489281, 0.01702159270644188]",-0.006030021235346794,0.01702159270644188,0.01201647985726595,0.0009536888683214784,0.014686808921396732,0.010109102353453636,0.02040894143283367,0.04482337832450867,-0.006030021235346794,-0.12531471252441406,1.355954885482788,0.5006866455078125,0.7211795449256897,0.05130846053361893,0.05436026677489281,0.01702159270644188
data_robot_give_0526,000001,71,2.366666555404663,205,0,"[0.01201647985726595, 0.0009536888683214784, 0.014686808921396732, 0.010109102353453636, 0.02040894143283367, 0.04482337832450867, -0.006030021235346794, -0.12531471252441406, 1.355954885482788, 0.5006866455078125, 0.7211795449256897, 0.05130846053361893, 0.05436026677489281, 0.01702159270644188]",-0.006030021235346794,0.01702159270644188,0.01201647985726595,0.0009536888683214784,0.014686808921396732,0.010109102353453636,0.02040894143283367,0.04482337832450867,-0.006030021235346794,-0.12531471252441406,1.355954885482788,0.5006866455078125,0.7211795449256897,0.05130846053361893,0.05436026677489281,0.01702159270644188
data_robot_give_0526,000001,72,2.4000000953674316,206,0,"[0.01201647985726595, 0.0009536888683214784, 0.014686808921396732, 0.010109102353453636, 0.020027466118335724, 0.045204851776361465, -0.006026683375239372, -0.12531471252441406, 1.355954885482788, 0.5006866455078125, 0.7211795449256897, 0.05130846053361893, 0.05436026677489281, 0.01702159270644188]",-0.006026683375239372,0.01702159270644188,0.01201647985726595,0.0009536888683214784,0.014686808921396732,0.010109102353453636,0.020027466118335724,0.045204851776361465,-0.006026683375239372,-0.12531471252441406,1.355954885482788,0.5006866455078125,0.7211795449256897,0.05130846053361893,0.05436026677489281,0.01702159270644188
data_robot_give_0526,000001,73,2.433333396911621,207,0,"[0.01201647985726595, 0.0009536888683214784, 0.014686808921396732, 0.010109102353453636, 0.020027466118335724, 0.04482337832450867, -0.006030021235346794, -0.12531471252441406, 1.355954885482788, 0.5006866455078125, 0.7211795449256897, 0.05130846053361893, 0.05436026677489281, 0.01702159270644188]",-0.006030021235346794,0.01702159270644188,0.01201647985726595,0.0009536888683214784,0.014686808921396732,0.010109102353453636,0.020027466118335724,0.04482337832450867,-0.006030021235346794,-0.12531471252441406,1.355954885482788,0.5006866455078125,0.7211795449256897,0.05130846053361893,0.05436026677489281,0.01702159270644188
data_robot_give_0526,000001,74,2.4666666984558105,208,0,"[0.01201647985726595, 0.0009536888683214784, 0.014686808921396732, 0.010109102353453636, 0.02040894143283367, 0.04482337832450867, -0.006030021235346794, -0.12531471252441406, 1.355954885482788, 0.5006866455078125, 0.7211795449256897, 0.05130846053361893, 0.05436026677489281, 0.017028268426656723]",-0.006030021235346794,0.017028268426656723,0.01201647985726595,0.0009536888683214784,0.014686808921396732,0.010109102353453636,0.02040894143283367,0.04482337832450867,-0.006030021235346794,-0.12531471252441406,1.355954885482788,0.5006866455078125,0.7211795449256897,0.05130846053361893,0.05436026677489281,0.017028268426656723
data_robot_give_0526,000001,75,2.5,209,0,"[0.01201647985726595, 0.0009536888683214784, 0.014686808921396732, 0.010109102353453636, 0.020027466118335724, 0.04482337832450867, -0.006030021235346794, -0.12531471252441406, 1.355954885482788, 0.5006866455078125, 0.7211795449256897, 0.05130846053361893, 0.05436026677489281, 0.0170249305665493]",-0.006030021235346794,0.0170249305665493,0.01201647985726595,0.0009536888683214784,0.014686808921396732,0.010109102353453636,0.020027466118335724,0.04482337832450867,-0.006030021235346794,-0.12531471252441406,1.355954885482788,0.5006866455078125,0.7211795449256897,0.05130846053361893,0.05436026677489281,0.0170249305665493
data_robot_give_0526,000001,76,2.5333333015441895,210,0,"[0.01201647985726595, 0.0009536888683214784, 0.014686808921396732, 0.010109102353453636, 0.02040894143283367, 0.04482337832450867, -0.006030021235346794, -0.12531471252441406, 1.355954885482788, 0.5006866455078125, 0.7211795449256897, 0.05130846053361893, 0.05436026677489281, 0.017018254846334457]",-0.006030021235346794,0.017018254846334457,0.01201647985726595,0.0009536888683214784,0.014686808921396732,0.010109102353453636,0.02040894143283367,0.04482337832450867,-0.006030021235346794,-0.12531471252441406,1.355954885482788,0.5006866455078125,0.7211795449256897,0.05130846053361893,0.05436026677489281,0.017018254846334457
data_robot_give_0526,000001,77,2.566666603088379,211,0,"[0.01201647985726595, 0.0009536888683214784, 0.014686808921396732, 0.010109102353453636, 0.02040894143283367, 0.04482337832450867, -0.006030021235346794, -0.12531471252441406, 1.355954885482788, 0.5006866455078125, 0.7211795449256897, 0.05130846053361893, 0.05436026677489281, 0.01702159270644188]",-0.006030021235346794,0.01702159270644188,0.01201647985726595,0.0009536888683214784,0.014686808921396732,0.010109102353453636,0.02040894143283367,0.04482337832450867,-0.006030021235346794,-0.12531471252441406,1.355954885482788,0.5006866455078125,0.7211795449256897,0.05130846053361893,0.05436026677489281,0.01702159270644188
data_robot_give_0526,000001,78,2.5999999046325684,212,0,"[0.01201647985726595, 0.0009536888683214784, 0.014686808921396732, 0.010109102353453636, 0.020027466118335724, 0.04482337832450867, -0.006030021235346794, -0.12531471252441406, 1.355954885482788, 0.5006866455078125, 0.7211795449256897, 0.05130846053361893, 0.05436026677489281, 0.01702159270644188]",-0.006030021235346794,0.01702159270644188,0.01201647985726595,0.0009536888683214784,0.014686808921396732,0.010109102353453636,0.020027466118335724,0.04482337832450867,-0.006030021235346794,-0.12531471252441406,1.355954885482788,0.5006866455078125,0.7211795449256897,0.05130846053361893,0.05436026677489281,0.01702159270644188
data_robot_give_0526,000001,79,2.633333444595337,213,0,"[0.01201647985726595, 0.0009536888683214784, 0.014686808921396732, 0.010109102353453636, 0.020027466118335724, 0.045204851776361465, -0.00602334551513195, -0.12531471252441406, 1.355954885482788, 0.5006866455078125, 0.7211795449256897, 0.05130846053361893, 0.05397878959774971, 0.017011579126119614]",-0.00602334551513195,0.017011579126119614,0.01201647985726595,0.0009536888683214784,0.014686808921396732,0.010109102353453636,0.020027466118335724,0.045204851776361465,-0.00602334551513195,-0.12531471252441406,1.355954885482788,0.5006866455078125,0.7211795449256897,0.05130846053361893,0.05397878959774971,0.017011579126119614
data_robot_give_0526,000001,80,2.6666667461395264,214,0,"[0.01201647985726595, 0.0009536888683214784, 0.014686808921396732, 0.010109102353453636, 0.020027466118335724, 0.04482337832450867, -0.006030021235346794, -0.12531471252441406, 1.355954885482788, 0.5006866455078125, 0.7211795449256897, 0.05130846053361893, 0.05359731614589691, 0.016868047416210175]",-0.006030021235346794,0.016868047416210175,0.01201647985726595,0.0009536888683214784,0.014686808921396732,0.010109102353453636,0.020027466118335724,0.04482337832450867,-0.006030021235346794,-0.12531471252441406,1.355954885482788,0.5006866455078125,0.7211795449256897,0.05130846053361893,0.05359731614589691,0.016868047416210175
data_robot_give_0526,000001,81,2.700000047683716,215,0,"[0.01201647985726595, 0.0009536888683214784, 0.014686808921396732, 0.010109102353453636, 0.020027466118335724, 0.04482337832450867, -0.006030021235346794, -0.12531471252441406, 1.355954885482788, 0.5006866455078125, 0.7211795449256897, 0.05130846053361893, 0.05207141116261482, 0.01641075499355793]",-0.006030021235346794,0.01641075499355793,0.01201647985726595,0.0009536888683214784,0.014686808921396732,0.010109102353453636,0.020027466118335724,0.04482337832450867,-0.006030021235346794,-0.12531471252441406,1.355954885482788,0.5006866455078125,0.7211795449256897,0.05130846053361893,0.05207141116261482,0.01641075499355793
data_robot_give_0526,000001,82,2.7333333492279053,216,0,"[0.01201647985726595, 0.0009536888683214784, 0.014686808921396732, 0.010109102353453636, 0.020027466118335724, 0.04482337832450867, -0.00602334551513195, -0.12531471252441406, 1.355954885482788, 0.5006866455078125, 0.7211795449256897, 0.051689937710762024, 0.04940108209848404, 0.015579614788293839]",-0.00602334551513195,0.015579614788293839,0.01201647985726595,0.0009536888683214784,0.014686808921396732,0.010109102353453636,0.020027466118335724,0.04482337832450867,-0.00602334551513195,-0.12531471252441406,1.355954885482788,0.5006866455078125,0.7211795449256897,0.051689937710762024,0.04940108209848404,0.015579614788293839
data_robot_give_0526,000001,83,2.7666666507720947,217,0,"[0.01201647985726595, 0.0009536888683214784, 0.014686808921396732, 0.010109102353453636, 0.020027466118335724, 0.04482337832450867, -0.006030021235346794, -0.12531471252441406, 1.355954885482788, 0.5006866455078125, 0.7211795449256897, 0.051689937710762024, 0.04901960864663124, 0.014421360567212105]",-0.006030021235346794,0.014421360567212105,0.01201647985726595,0.0009536888683214784,0.014686808921396732,0.010109102353453636,0.020027466118335724,0.04482337832450867,-0.006030021235346794,-0.12531471252441406,1.355954885482788,0.5006866455078125,0.7211795449256897,0.051689937710762024,0.04901960864663124,0.014421360567212105
data_robot_give_0526,000001,84,2.799999952316284,218,0,"[0.01201647985726595, 0.0009536888683214784, 0.014686808921396732, 0.010109102353453636, 0.020027466118335724, 0.04482337832450867, -0.006030021235346794, -0.12531471252441406, 1.355954885482788, 0.5006866455078125, 0.7211795449256897, 0.051689937710762024, 0.048256658017635345, 0.012929314747452736]",-0.006030021235346794,0.012929314747452736,0.01201647985726595,0.0009536888683214784,0.014686808921396732,0.010109102353453636,0.020027466118335724,0.04482337832450867,-0.006030021235346794,-0.12531471252441406,1.355954885482788,0.5006866455078125,0.7211795449256897,0.051689937710762024,0.048256658017635345,0.012929314747452736
data_robot_give_0526,000001,85,2.8333332538604736,219,0,"[0.01201647985726595, 0.0009536888683214784, 0.014686808921396732, 0.010109102353453636, 0.020027466118335724, 0.04482337832450867, -0.006030021235346794, -0.12531471252441406, 1.355954885482788, 0.5006866455078125, 0.7211795449256897, 0.05207141116261482, 0.04253452271223068, 0.011033380404114723]",-0.006030021235346794,0.011033380404114723,0.01201647985726595,0.0009536888683214784,0.014686808921396732,0.010109102353453636,0.020027466118335724,0.04482337832450867,-0.006030021235346794,-0.12531471252441406,1.355954885482788,0.5006866455078125,0.7211795449256897,0.05207141116261482,0.04253452271223068,0.011033380404114723
data_robot_give_0526,000001,86,2.866666555404663,220,0,"[0.01201647985726595, 0.0009536888683214784, 0.014686808921396732, 0.010109102353453636, 0.020027466118335724, 0.045204851776361465, -0.006026683375239372, -0.12531471252441406, 1.355954885482788, 0.5006866455078125, 0.7211795449256897, 0.05207141116261482, 0.029564354568719864, 0.008927158080041409]",-0.006026683375239372,0.008927158080041409,0.01201647985726595,0.0009536888683214784,0.014686808921396732,0.010109102353453636,0.020027466118335724,0.045204851776361465,-0.006026683375239372,-0.12531471252441406,1.355954885482788,0.5006866455078125,0.7211795449256897,0.05207141116261482,0.029564354568719864,0.008927158080041409
data_robot_give_0526,000001,87,2.9000000953674316,221,0,"[0.01201647985726595, 0.0009536888683214784, 0.014686808921396732, 0.010109102353453636, 0.020027466118335724, 0.04482337832450867, -0.006030021235346794, -0.12531471252441406, 1.355954885482788, 0.5006866455078125, 0.7211795449256897, 0.051689937710762024, 0.014686808921396732, 0.006560578942298889]",-0.006030021235346794,0.006560578942298889,0.01201647985726595,0.0009536888683214784,0.014686808921396732,0.010109102353453636,0.020027466118335724,0.04482337832450867,-0.006030021235346794,-0.12531471252441406,1.355954885482788,0.5006866455078125,0.7211795449256897,0.051689937710762024,0.014686808921396732,0.006560578942298889
data_robot_give_0526,000001,88,2.933333396911621,222,0,"[0.01201647985726595, 0.0009536888683214784, 0.014686808921396732, 0.010109102353453636, 0.020027466118335724, 0.045204851776361465, -0.006026683375239372, -0.12531471252441406, 1.355954885482788, 0.5006866455078125, 0.7211795449256897, 0.05130846053361893, -0.004386968910694122, 0.004404288716614246]",-0.006026683375239372,0.004404288716614246,0.01201647985726595,0.0009536888683214784,0.014686808921396732,0.010109102353453636,0.020027466118335724,0.045204851776361465,-0.006026683375239372,-0.12531471252441406,1.355954885482788,0.5006866455078125,0.7211795449256897,0.05130846053361893,-0.004386968910694122,0.004404288716614246
data_robot_give_0526,000001,89,2.9666666984558105,223,0,"[0.01201647985726595, 0.0009536888683214784, 0.014686808921396732, 0.010109102353453636, 0.020027466118335724, 0.04482337832450867, -0.006030021235346794, -0.12569619715213776, 1.355954885482788, 0.5006866455078125, 0.7211795449256897, 0.05130846053361893, -0.02040894143283367, 0.004017091356217861]",-0.006030021235346794,0.004017091356217861,0.01201647985726595,0.0009536888683214784,0.014686808921396732,0.010109102353453636,0.020027466118335724,0.04482337832450867,-0.006030021235346794,-0.12569619715213776,1.355954885482788,0.5006866455078125,0.7211795449256897,0.05130846053361893,-0.02040894143283367,0.004017091356217861
data_robot_give_0526,000001,90,3.0,224,0,"[0.01201647985726595, 0.0009536888683214784, 0.014686808921396732, 0.010109102353453636, 0.020027466118335724, 0.045204851776361465, -0.006030021235346794, -0.12531471252441406, 1.355954885482788, 0.5006866455078125, 0.7211795449256897, 0.05130846053361893, -0.03223468363285065, 0.004621253348886967]",-0.006030021235346794,0.004621253348886967,0.01201647985726595,0.0009536888683214784,0.014686808921396732,0.010109102353453636,0.020027466118335724,0.045204851776361465,-0.006030021235346794,-0.12531471252441406,1.355954885482788,0.5006866455078125,0.7211795449256897,0.05130846053361893,-0.03223468363285065,0.004621253348886967
data_robot_give_0526,000001,91,3.0333333015441895,225,0,"[0.01201647985726595, 0.0009536888683214784, 0.014686808921396732, 0.010109102353453636, 0.020027466118335724, 0.04482337832450867, -0.00602334551513195, -0.12531471252441406, 1.355954885482788, 0.5006866455078125, 0.7211795449256897, 0.05092698708176613, -0.03223468363285065, 0.005325552076101303]",-0.00602334551513195,0.005325552076101303,0.01201647985726595,0.0009536888683214784,0.014686808921396732,0.010109102353453636,0.020027466118335724,0.04482337832450867,-0.00602334551513195,-0.12531471252441406,1.355954885482788,0.5006866455078125,0.7211795449256897,0.05092698708176613,-0.03223468363285065,0.005325552076101303
data_robot_give_0526,000001,92,3.066666603088379,226,0,"[0.01201647985726595, 0.0009536888683214784, 0.014686808921396732, 0.010109102353453636, 0.020027466118335724, 0.045204851776361465, -0.006026683375239372, -0.12531471252441406, 1.355954885482788, 0.5006866455078125, 0.7211795449256897, 0.05092698708176613, -0.03223468363285065, 0.005629302002489567]",-0.006026683375239372,0.005629302002489567,0.01201647985726595,0.0009536888683214784,0.014686808921396732,0.010109102353453636,0.020027466118335724,0.045204851776361465,-0.006026683375239372,-0.12531471252441406,1.355954885482788,0.5006866455078125,0.7211795449256897,0.05092698708176613,-0.03223468363285065,0.005629302002489567
data_robot_give_0526,000001,93,3.0999999046325684,227,0,"[0.01201647985726595, 0.0009536888683214784, 0.014686808921396732, 0.010109102353453636, 0.020027466118335724, 0.04482337832450867, -0.006030021235346794, -0.12531471252441406, 1.355954885482788, 0.5006866455078125, 0.7211795449256897, 0.05092698708176613, -0.03223468363285065, 0.005549191497266293]",-0.006030021235346794,0.005549191497266293,0.01201647985726595,0.0009536888683214784,0.014686808921396732,0.010109102353453636,0.020027466118335724,0.04482337832450867,-0.006030021235346794,-0.12531471252441406,1.355954885482788,0.5006866455078125,0.7211795449256897,0.05092698708176613,-0.03223468363285065,0.005549191497266293
data_robot_give_0526,000001,94,3.133333444595337,228,0,"[0.01201647985726595, 0.0009536888683214784, 0.014686808921396732, 0.010109102353453636, 0.020027466118335724, 0.04482337832450867, -0.006030021235346794, -0.12531471252441406, 1.355954885482788, 0.5006866455078125, 0.7211795449256897, 0.05092698708176613, -0.032616160809993744, 0.005362269468605518]",-0.006030021235346794,0.005362269468605518,0.01201647985726595,0.0009536888683214784,0.014686808921396732,0.010109102353453636,0.020027466118335724,0.04482337832450867,-0.006030021235346794,-0.12531471252441406,1.355954885482788,0.5006866455078125,0.7211795449256897,0.05092698708176613,-0.032616160809993744,0.005362269468605518
data_robot_give_0526,000001,95,3.1666667461395264,229,0,"[0.01201647985726595, 0.0009536888683214784, 0.014686808921396732, 0.010109102353453636, 0.020027466118335724, 0.04482337832450867, -0.006030021235346794, -0.12531471252441406, 1.355954885482788, 0.5006866455078125, 0.7211795449256897, 0.05092698708176613, -0.03299763426184654, 0.0051753465086221695]",-0.006030021235346794,0.0051753465086221695,0.01201647985726595,0.0009536888683214784,0.014686808921396732,0.010109102353453636,0.020027466118335724,0.04482337832450867,-0.006030021235346794,-0.12531471252441406,1.355954885482788,0.5006866455078125,0.7211795449256897,0.05092698708176613,-0.03299763426184654,0.0051753465086221695
data_robot_give_0526,000001,96,3.200000047683716,230,0,"[0.01201647985726595, 0.0009536888683214784, 0.014686808921396732, 0.010109102353453636, 0.020027466118335724, 0.04482337832450867, -0.006030021235346794, -0.12531471252441406, 1.355954885482788, 0.5006866455078125, 0.7211795449256897, 0.05092698708176613, -0.03337911143898964, 0.005031815730035305]",-0.006030021235346794,0.005031815730035305,0.01201647985726595,0.0009536888683214784,0.014686808921396732,0.010109102353453636,0.020027466118335724,0.04482337832450867,-0.006030021235346794,-0.12531471252441406,1.355954885482788,0.5006866455078125,0.7211795449256897,0.05092698708176613,-0.03337911143898964,0.005031815730035305
data_robot_give_0526,000001,97,3.2333333492279053,231,0,"[0.01201647985726595, 0.0009536888683214784, 0.014686808921396732, 0.010109102353453636, 0.02040894143283367, 0.045204851776361465, -0.006030021235346794, -0.12531471252441406, 1.355954885482788, 0.5006866455078125, 0.7211795449256897, 0.05092698708176613, -0.03528648987412453, 0.004985084757208824]",-0.006030021235346794,0.004985084757208824,0.01201647985726595,0.0009536888683214784,0.014686808921396732,0.010109102353453636,0.02040894143283367,0.045204851776361465,-0.006030021235346794,-0.12531471252441406,1.355954885482788,0.5006866455078125,0.7211795449256897,0.05092698708176613,-0.03528648987412453,0.004985084757208824
data_robot_give_0526,000001,98,3.2666666507720947,232,0,"[0.01201647985726595, 0.0009536888683214784, 0.014686808921396732, 0.010109102353453636, 0.020027466118335724, 0.04482337832450867, -0.006030021235346794, -0.12531471252441406, 1.355954885482788, 0.5006866455078125, 0.7211795449256897, 0.05092698708176613, -0.039101243019104004, 0.004985084757208824]",-0.006030021235346794,0.004985084757208824,0.01201647985726595,0.0009536888683214784,0.014686808921396732,0.010109102353453636,0.020027466118335724,0.04482337832450867,-0.006030021235346794,-0.12531471252441406,1.355954885482788,0.5006866455078125,0.7211795449256897,0.05092698708176613,-0.039101243019104004,0.004985084757208824
data_robot_give_0526,000001,99,3.299999952316284,233,0,"[0.01201647985726595, 0.0009536888683214784, 0.014686808921396732, 0.010109102353453636, 0.020027466118335724, 0.04482337832450867, -0.006030021235346794, -0.12531471252441406, 1.355954885482788, 0.5006866455078125, 0.7211795449256897, 0.05092698708176613, -0.0398641936480999, 0.004985084757208824]",-0.006030021235346794,0.004985084757208824,0.01201647985726595,0.0009536888683214784,0.014686808921396732,0.010109102353453636,0.020027466118335724,0.04482337832450867,-0.006030021235346794,-0.12531471252441406,1.355954885482788,0.5006866455078125,0.7211795449256897,0.05092698708176613,-0.0398641936480999,0.004985084757208824
data_robot_give_0526,000001,100,3.3333332538604736,234,0,"[0.01201647985726595, 0.0009536888683214784, 0.014686808921396732, 0.010109102353453636, 0.02040894143283367, 0.04482337832450867, -0.00602334551513195, -0.12531471252441406, 1.355954885482788, 0.5006866455078125, 0.7211795449256897, 0.05092698708176613, -0.040245670825242996, 0.004988422617316246]",-0.00602334551513195,0.004988422617316246,0.01201647985726595,0.0009536888683214784,0.014686808921396732,0.010109102353453636,0.02040894143283367,0.04482337832450867,-0.00602334551513195,-0.12531471252441406,1.355954885482788,0.5006866455078125,0.7211795449256897,0.05092698708176613,-0.040245670825242996,0.004988422617316246
data_robot_give_0526,000001,101,3.366666555404663,235,0,"[0.01201647985726595, 0.0009536888683214784, 0.014686808921396732, 0.010109102353453636, 0.02040894143283367, 0.045204851776361465, -0.006026683375239372, -0.12531471252441406, 1.355954885482788, 0.5006866455078125, 0.7211795449256897, 0.05092698708176613, -0.0398641936480999, 0.004985084757208824]",-0.006026683375239372,0.004985084757208824,0.01201647985726595,0.0009536888683214784,0.014686808921396732,0.010109102353453636,0.02040894143283367,0.045204851776361465,-0.006026683375239372,-0.12531471252441406,1.355954885482788,0.5006866455078125,0.7211795449256897,0.05092698708176613,-0.0398641936480999,0.004985084757208824
data_robot_give_0526,000001,102,3.4000000953674316,236,0,"[0.01201647985726595, 0.0009536888683214784, 0.014686808921396732, 0.010109102353453636, 0.02040894143283367, 0.04482337832450867, -0.006030021235346794, -0.12531471252441406, 1.355954885482788, 0.5006866455078125, 0.7211795449256897, 0.05092698708176613, -0.0398641936480999, 0.004988422617316246]",-0.006030021235346794,0.004988422617316246,0.01201647985726595,0.0009536888683214784,0.014686808921396732,0.010109102353453636,0.02040894143283367,0.04482337832450867,-0.006030021235346794,-0.12531471252441406,1.355954885482788,0.5006866455078125,0.7211795449256897,0.05092698708176613,-0.0398641936480999,0.004988422617316246
data_robot_give_0526,000001,103,3.433333396911621,237,0,"[0.01201647985726595, 0.0009536888683214784, 0.014686808921396732, 0.010109102353453636, 0.02040894143283367, 0.04482337832450867, -0.006026683375239372, -0.12531471252441406, 1.355954885482788, 0.5006866455078125, 0.7211795449256897, 0.05092698708176613, -0.0398641936480999, 0.004991760477423668]",-0.006026683375239372,0.004991760477423668,0.01201647985726595,0.0009536888683214784,0.014686808921396732,0.010109102353453636,0.02040894143283367,0.04482337832450867,-0.006026683375239372,-0.12531471252441406,1.355954885482788,0.5006866455078125,0.7211795449256897,0.05092698708176613,-0.0398641936480999,0.004991760477423668
data_robot_give_0526,000001,104,3.4666666984558105,238,0,"[0.01201647985726595, 0.0009536888683214784, 0.014686808921396732, 0.010109102353453636, 0.02040894143283367, 0.04482337832450867, -0.00602334551513195, -0.12531471252441406, 1.355954885482788, 0.5006866455078125, 0.7207980751991272, 0.05092698708176613, -0.0398641936480999, 0.004991760477423668]",-0.00602334551513195,0.004991760477423668,0.01201647985726595,0.0009536888683214784,0.014686808921396732,0.010109102353453636,0.02040894143283367,0.04482337832450867,-0.00602334551513195,-0.12531471252441406,1.355954885482788,0.5006866455078125,0.7207980751991272,0.05092698708176613,-0.0398641936480999,0.004991760477423668
data_robot_give_0526,000001,105,3.5,239,0,"[0.01201647985726595, 0.0009536888683214784, 0.014686808921396732, 0.010109102353453636, 0.02040894143283367, 0.04482337832450867, -0.006030021235346794, -0.12531471252441406, 1.355954885482788, 0.5006866455078125, 0.7211795449256897, 0.05092698708176613, -0.0398641936480999, 0.004988422617316246]",-0.006030021235346794,0.004988422617316246,0.01201647985726595,0.0009536888683214784,0.014686808921396732,0.010109102353453636,0.02040894143283367,0.04482337832450867,-0.006030021235346794,-0.12531471252441406,1.355954885482788,0.5006866455078125,0.7211795449256897,0.05092698708176613,-0.0398641936480999,0.004988422617316246
data_robot_give_0526,000001,106,3.5333333015441895,240,0,"[0.01201647985726595, 0.0009536888683214784, 0.014686808921396732, 0.010109102353453636, 0.020027466118335724, 0.04482337832450867, -0.006030021235346794, -0.12531471252441406, 1.355954885482788, 0.5006866455078125, 0.7211795449256897, 0.05092698708176613, -0.0398641936480999, 0.004988422617316246]",-0.006030021235346794,0.004988422617316246,0.01201647985726595,0.0009536888683214784,0.014686808921396732,0.010109102353453636,0.020027466118335724,0.04482337832450867,-0.006030021235346794,-0.12531471252441406,1.355954885482788,0.5006866455078125,0.7211795449256897,0.05092698708176613,-0.0398641936480999,0.004988422617316246
data_robot_give_0526,000001,107,3.566666603088379,241,0,"[0.01201647985726595, 0.0009536888683214784, 0.014686808921396732, 0.010109102353453636, 0.02040894143283367, 0.04482337832450867, -0.006026683375239372, -0.12531471252441406, 1.355954885482788, 0.5006866455078125, 0.7211795449256897, 0.05092698708176613, -0.0398641936480999, 0.00499509833753109]",-0.006026683375239372,0.00499509833753109,0.01201647985726595,0.0009536888683214784,0.014686808921396732,0.010109102353453636,0.02040894143283367,0.04482337832450867,-0.006026683375239372,-0.12531471252441406,1.355954885482788,0.5006866455078125,0.7211795449256897,0.05092698708176613,-0.0398641936480999,0.00499509833753109
data_robot_give_0526,000001,108,3.5999999046325684,242,0,"[0.01201647985726595, 0.0009536888683214784, 0.014686808921396732, 0.010109102353453636, 0.02040894143283367, 0.045204851776361465, -0.006026683375239372, -0.12531471252441406, 1.355954885482788, 0.5006866455078125, 0.7211795449256897, 0.05130846053361893, -0.0398641936480999, 0.005015126429498196]",-0.006026683375239372,0.005015126429498196,0.01201647985726595,0.0009536888683214784,0.014686808921396732,0.010109102353453636,0.02040894143283367,0.045204851776361465,-0.006026683375239372,-0.12531471252441406,1.355954885482788,0.5006866455078125,0.7211795449256897,0.05130846053361893,-0.0398641936480999,0.005015126429498196
data_robot_give_0526,000001,109,3.633333444595337,243,0,"[0.01201647985726595, 0.0009536888683214784, 0.014686808921396732, 0.010109102353453636, 0.02040894143283367, 0.04444190114736557, -0.006026683375239372, -0.12531471252441406, 1.355954885482788, 0.5006866455078125, 0.7211795449256897, 0.05130846053361893, -0.0398641936480999, 0.005061856471002102]",-0.006026683375239372,0.005061856471002102,0.01201647985726595,0.0009536888683214784,0.014686808921396732,0.010109102353453636,0.02040894143283367,0.04444190114736557,-0.006026683375239372,-0.12531471252441406,1.355954885482788,0.5006866455078125,0.7211795449256897,0.05130846053361893,-0.0398641936480999,0.005061856471002102
data_robot_give_0526,000001,110,3.6666667461395264,244,0,"[0.01201647985726595, 0.0009536888683214784, 0.014686808921396732, 0.010109102353453636, 0.02040894143283367, 0.045204851776361465, -0.006026683375239372, -0.12531471252441406, 1.355954885482788, 0.5006866455078125, 0.7207980751991272, 0.05130846053361893, -0.0398641936480999, 0.005101911723613739]",-0.006026683375239372,0.005101911723613739,0.01201647985726595,0.0009536888683214784,0.014686808921396732,0.010109102353453636,0.02040894143283367,0.045204851776361465,-0.006026683375239372,-0.12531471252441406,1.355954885482788,0.5006866455078125,0.7207980751991272,0.05130846053361893,-0.0398641936480999,0.005101911723613739
data_robot_give_0526,000001,111,3.700000047683716,245,0,"[0.01201647985726595, 0.0009536888683214784, 0.014686808921396732, 0.010109102353453636, 0.020027466118335724, 0.04482337832450867, -0.006030021235346794, -0.12531471252441406, 1.355954885482788, 0.5006866455078125, 0.7200350761413574, 0.05130846053361893, -0.0398641936480999, 0.005131952464580536]",-0.006030021235346794,0.005131952464580536,0.01201647985726595,0.0009536888683214784,0.014686808921396732,0.010109102353453636,0.020027466118335724,0.04482337832450867,-0.006030021235346794,-0.12531471252441406,1.355954885482788,0.5006866455078125,0.7200350761413574,0.05130846053361893,-0.0398641936480999,0.005131952464580536
data_robot_give_0526,000001,112,3.7333333492279053,246,0,"[0.01201647985726595, 0.0009536888683214784, 0.014686808921396732, 0.010109102353453636, 0.02040894143283367, 0.04482337832450867, -0.006030021235346794, -0.12531471252441406, 1.355954885482788, 0.5006866455078125, 0.7185091972351074, 0.051689937710762024, -0.0398641936480999, 0.005105249583721161]",-0.006030021235346794,0.005105249583721161,0.01201647985726595,0.0009536888683214784,0.014686808921396732,0.010109102353453636,0.02040894143283367,0.04482337832450867,-0.006030021235346794,-0.12531471252441406,1.355954885482788,0.5006866455078125,0.7185091972351074,0.051689937710762024,-0.0398641936480999,0.005105249583721161
data_robot_give_0526,000001,113,3.7666666507720947,247,0,"[0.01201647985726595, 0.0009536888683214784, 0.014686808921396732, 0.010109102353453636, 0.020027466118335724, 0.04482337832450867, -0.006026683375239372, -0.12531471252441406, 1.355954885482788, 0.5006866455078125, 0.7169833183288574, 0.051689937710762024, -0.0398641936480999, 0.00508522242307663]",-0.006026683375239372,0.00508522242307663,0.01201647985726595,0.0009536888683214784,0.014686808921396732,0.010109102353453636,0.020027466118335724,0.04482337832450867,-0.006026683375239372,-0.12531471252441406,1.355954885482788,0.5006866455078125,0.7169833183288574,0.051689937710762024,-0.0398641936480999,0.00508522242307663
data_robot_give_0526,000001,114,3.799999952316284,248,0,"[0.01201647985726595, 0.0009536888683214784, 0.014686808921396732, 0.010109102353453636, 0.02040894143283367, 0.04444190114736557, -0.0060200076550245285, -0.12531471252441406, 1.355954885482788, 0.5006866455078125, 0.7150759100914001, 0.051689937710762024, -0.0398641936480999, 0.0050885602831840515]",-0.0060200076550245285,0.0050885602831840515,0.01201647985726595,0.0009536888683214784,0.014686808921396732,0.010109102353453636,0.02040894143283367,0.04444190114736557,-0.0060200076550245285,-0.12531471252441406,1.355954885482788,0.5006866455078125,0.7150759100914001,0.051689937710762024,-0.0398641936480999,0.0050885602831840515
data_robot_give_0526,000001,115,3.8333332538604736,249,0,"[0.01201647985726595, 0.0009536888683214784, 0.014686808921396732, 0.010109102353453636, 0.02040894143283367, 0.045204851776361465, -0.006030021235346794, -0.12531471252441406, 1.355954885482788, 0.5006866455078125, 0.7139315009117126, 0.051689937710762024, -0.0398641936480999, 0.005131952464580536]",-0.006030021235346794,0.005131952464580536,0.01201647985726595,0.0009536888683214784,0.014686808921396732,0.010109102353453636,0.02040894143283367,0.045204851776361465,-0.006030021235346794,-0.12531471252441406,1.355954885482788,0.5006866455078125,0.7139315009117126,0.051689937710762024,-0.0398641936480999,0.005131952464580536
data_robot_give_0526,000001,116,3.866666555404663,250,0,"[0.01201647985726595, 0.0009536888683214784, 0.014686808921396732, 0.010109102353453636, 0.02040894143283367, 0.04482337832450867, -0.006026683375239372, -0.12531471252441406, 1.355954885482788, 0.5006866455078125, 0.7131685614585876, 0.051689937710762024, -0.0398641936480999, 0.005111925303936005]",-0.006026683375239372,0.005111925303936005,0.01201647985726595,0.0009536888683214784,0.014686808921396732,0.010109102353453636,0.02040894143283367,0.04482337832450867,-0.006026683375239372,-0.12531471252441406,1.355954885482788,0.5006866455078125,0.7131685614585876,0.051689937710762024,-0.0398641936480999,0.005111925303936005
data_robot_give_0526,000001,117,3.9000000953674316,251,0,"[0.01201647985726595, 0.0009536888683214784, 0.014686808921396732, 0.010109102353453636, 0.020027466118335724, 0.045204851776361465, -0.006026683375239372, -0.12531471252441406, 1.355954885482788, 0.5006866455078125, 0.7124055624008179, 0.051689937710762024, -0.0398641936480999, 0.005095236003398895]",-0.006026683375239372,0.005095236003398895,0.01201647985726595,0.0009536888683214784,0.014686808921396732,0.010109102353453636,0.020027466118335724,0.045204851776361465,-0.006026683375239372,-0.12531471252441406,1.355954885482788,0.5006866455078125,0.7124055624008179,0.051689937710762024,-0.0398641936480999,0.005095236003398895
data_robot_give_0526,000001,118,3.933333396911621,252,0,"[0.01201647985726595, 0.0009536888683214784, 0.014686808921396732, 0.010109102353453636, 0.020027466118335724, 0.04482337832450867, -0.006026683375239372, -0.12531471252441406, 1.355954885482788, 0.5006866455078125, 0.7112611532211304, 0.051689937710762024, -0.0398641936480999, 0.005091898143291473]",-0.006026683375239372,0.005091898143291473,0.01201647985726595,0.0009536888683214784,0.014686808921396732,0.010109102353453636,0.020027466118335724,0.04482337832450867,-0.006026683375239372,-0.12531471252441406,1.355954885482788,0.5006866455078125,0.7112611532211304,0.051689937710762024,-0.0398641936480999,0.005091898143291473
data_robot_give_0526,000001,119,3.9666666984558105,253,0,"[0.01201647985726595, 0.0009536888683214784, 0.014686808921396732, 0.010109102353453636, 0.020027466118335724, 0.04482337832450867, -0.006030021235346794, -0.12531471252441406, 1.355954885482788, 0.5006866455078125, 0.7101167440414429, 0.051689937710762024, -0.0398641936480999, 0.005125276744365692]",-0.006030021235346794,0.005125276744365692,0.01201647985726595,0.0009536888683214784,0.014686808921396732,0.010109102353453636,0.020027466118335724,0.04482337832450867,-0.006030021235346794,-0.12531471252441406,1.355954885482788,0.5006866455078125,0.7101167440414429,0.051689937710762024,-0.0398641936480999,0.005125276744365692
data_robot_give_0526,000001,120,4.0,254,0,"[0.01201647985726595, 0.0009536888683214784, 0.014686808921396732, 0.010109102353453636, 0.020027466118335724, 0.045204851776361465, -0.006026683375239372, -0.12531471252441406, 1.355954885482788, 0.5006866455078125, 0.7093538045883179, 0.051689937710762024, -0.0398641936480999, 0.00512193888425827]",-0.006026683375239372,0.00512193888425827,0.01201647985726595,0.0009536888683214784,0.014686808921396732,0.010109102353453636,0.020027466118335724,0.045204851776361465,-0.006026683375239372,-0.12531471252441406,1.355954885482788,0.5006866455078125,0.7093538045883179,0.051689937710762024,-0.0398641936480999,0.00512193888425827
data_robot_give_0526,000001,121,4.0333333015441895,255,0,"[0.01201647985726595, 0.0009536888683214784, 0.014686808921396732, 0.010109102353453636, 0.020027466118335724, 0.04482337832450867, -0.006030021235346794, -0.12531471252441406, 1.355954885482788, 0.5006866455078125, 0.7085908055305481, 0.051689937710762024, -0.0398641936480999, 0.005108587443828583]",-0.006030021235346794,0.005108587443828583,0.01201647985726595,0.0009536888683214784,0.014686808921396732,0.010109102353453636,0.020027466118335724,0.04482337832450867,-0.006030021235346794,-0.12531471252441406,1.355954885482788,0.5006866455078125,0.7085908055305481,0.051689937710762024,-0.0398641936480999,0.005108587443828583
data_robot_give_0526,000001,122,4.066666603088379,256,0,"[0.01201647985726595, 0.0009536888683214784, 0.014686808921396732, 0.010109102353453636, 0.02040894143283367, 0.045204851776361465, -0.006030021235346794, -0.12531471252441406, 1.355954885482788, 0.5006866455078125, 0.7082093358039856, 0.051689937710762024, -0.0398641936480999, 0.005108587443828583]",-0.006030021235346794,0.005108587443828583,0.01201647985726595,0.0009536888683214784,0.014686808921396732,0.010109102353453636,0.02040894143283367,0.045204851776361465,-0.006030021235346794,-0.12531471252441406,1.355954885482788,0.5006866455078125,0.7082093358039856,0.051689937710762024,-0.0398641936480999,0.005108587443828583
data_robot_give_0526,000001,123,4.099999904632568,257,0,"[0.01201647985726595, 0.0009536888683214784, 0.014686808921396732, 0.010109102353453636, 0.020027466118335724, 0.04482337832450867, -0.006026683375239372, -0.12569619715213776, 1.355954885482788, 0.5006866455078125, 0.7074463963508606, 0.051689937710762024, -0.0398641936480999, 0.005111925303936005]",-0.006026683375239372,0.005111925303936005,0.01201647985726595,0.0009536888683214784,0.014686808921396732,0.010109102353453636,0.020027466118335724,0.04482337832450867,-0.006026683375239372,-0.12569619715213776,1.355954885482788,0.5006866455078125,0.7074463963508606,0.051689937710762024,-0.0398641936480999,0.005111925303936005
data_robot_give_0526,000001,124,4.133333206176758,258,0,"[0.01201647985726595, 0.0009536888683214784, 0.014686808921396732, 0.010109102353453636, 0.02040894143283367, 0.045204851776361465, -0.006030021235346794, -0.12569619715213776, 1.355954885482788, 0.5006866455078125, 0.7070649266242981, 0.051689937710762024, -0.0398641936480999, 0.005125276744365692]",-0.006030021235346794,0.005125276744365692,0.01201647985726595,0.0009536888683214784,0.014686808921396732,0.010109102353453636,0.02040894143283367,0.045204851776361465,-0.006030021235346794,-0.12569619715213776,1.355954885482788,0.5006866455078125,0.7070649266242981,0.051689937710762024,-0.0398641936480999,0.005125276744365692
data_robot_give_0526,000001,125,4.166666507720947,259,0,"[0.01201647985726595, 0.0009536888683214784, 0.014686808921396732, 0.010109102353453636, 0.020027466118335724, 0.04482337832450867, -0.006026683375239372, -0.12569619715213776, 1.355954885482788, 0.5006866455078125, 0.7063019871711731, 0.051689937710762024, -0.0398641936480999, 0.005108587443828583]",-0.006026683375239372,0.005108587443828583,0.01201647985726595,0.0009536888683214784,0.014686808921396732,0.010109102353453636,0.020027466118335724,0.04482337832450867,-0.006026683375239372,-0.12569619715213776,1.355954885482788,0.5006866455078125,0.7063019871711731,0.051689937710762024,-0.0398641936480999,0.005108587443828583
data_robot_give_0526,000001,126,4.199999809265137,260,0,"[0.01201647985726595, 0.0009536888683214784, 0.014686808921396732, 0.010109102353453636, 0.020027466118335724, 0.04482337832450867, -0.006030021235346794, -0.12569619715213776, 1.355954885482788, 0.5006866455078125, 0.7051575779914856, 0.051689937710762024, -0.0398641936480999, 0.005111925303936005]",-0.006030021235346794,0.005111925303936005,0.01201647985726595,0.0009536888683214784,0.014686808921396732,0.010109102353453636,0.020027466118335724,0.04482337832450867,-0.006030021235346794,-0.12569619715213776,1.355954885482788,0.5006866455078125,0.7051575779914856,0.051689937710762024,-0.0398641936480999,0.005111925303936005
data_robot_give_0526,000001,127,4.233333110809326,261,0,"[0.01201647985726595, 0.0009536888683214784, 0.014686808921396732, 0.010109102353453636, 0.020027466118335724, 0.04482337832450867, -0.006030021235346794, -0.12569619715213776, 1.355954885482788, 0.5006866455078125, 0.7043945789337158, 0.051689937710762024, -0.0398641936480999, 0.005125276744365692]",-0.006030021235346794,0.005125276744365692,0.01201647985726595,0.0009536888683214784,0.014686808921396732,0.010109102353453636,0.020027466118335724,0.04482337832450867,-0.006030021235346794,-0.12569619715213776,1.355954885482788,0.5006866455078125,0.7043945789337158,0.051689937710762024,-0.0398641936480999,0.005125276744365692
data_robot_give_0526,000001,128,4.266666889190674,262,0,"[0.01201647985726595, 0.0009536888683214784, 0.014686808921396732, 0.010109102353453636, 0.020027466118335724, 0.04482337832450867, -0.006026683375239372, -0.12569619715213776, 1.3555734157562256, 0.5006866455078125, 0.7032501697540283, 0.051689937710762024, -0.0398641936480999, 0.005108587443828583]",-0.006026683375239372,0.005108587443828583,0.01201647985726595,0.0009536888683214784,0.014686808921396732,0.010109102353453636,0.020027466118335724,0.04482337832450867,-0.006026683375239372,-0.12569619715213776,1.3555734157562256,0.5006866455078125,0.7032501697540283,0.051689937710762024,-0.0398641936480999,0.005108587443828583
data_robot_give_0526,000001,129,4.300000190734863,263,0,"[0.01201647985726595, 0.0009536888683214784, 0.014686808921396732, 0.010109102353453636, 0.020027466118335724, 0.045204851776361465, -0.006030021235346794, -0.12569619715213776, 1.3555734157562256, 0.5006866455078125, 0.7024872303009033, 0.051689937710762024, -0.0398641936480999, 0.005111925303936005]",-0.006030021235346794,0.005111925303936005,0.01201647985726595,0.0009536888683214784,0.014686808921396732,0.010109102353453636,0.020027466118335724,0.045204851776361465,-0.006030021235346794,-0.12569619715213776,1.3555734157562256,0.5006866455078125,0.7024872303009033,0.051689937710762024,-0.0398641936480999,0.005111925303936005
data_robot_give_0526,000001,130,4.333333492279053,264,0,"[0.01201647985726595, 0.0009536888683214784, 0.014686808921396732, 0.010109102353453636, 0.020027466118335724, 0.04482337832450867, -0.006030021235346794, -0.12607766687870026, 1.3551918268203735, 0.5006866455078125, 0.7024872303009033, 0.051689937710762024, -0.0398641936480999, 0.00512193888425827]",-0.006030021235346794,0.00512193888425827,0.01201647985726595,0.0009536888683214784,0.014686808921396732,0.010109102353453636,0.020027466118335724,0.04482337832450867,-0.006030021235346794,-0.12607766687870026,1.3551918268203735,0.5006866455078125,0.7024872303009033,0.051689937710762024,-0.0398641936480999,0.00512193888425827
data_robot_give_0526,000001,131,4.366666793823242,265,0,"[0.01201647985726595, 0.0009536888683214784, 0.014686808921396732, 0.010109102353453636, 0.020027466118335724, 0.045204851776361465, -0.006026683375239372, -0.12607766687870026, 1.354810357093811, 0.5006866455078125, 0.7024872303009033, 0.051689937710762024, -0.0398641936480999, 0.005111925303936005]",-0.006026683375239372,0.005111925303936005,0.01201647985726595,0.0009536888683214784,0.014686808921396732,0.010109102353453636,0.020027466118335724,0.045204851776361465,-0.006026683375239372,-0.12607766687870026,1.354810357093811,0.5006866455078125,0.7024872303009033,0.051689937710762024,-0.0398641936480999,0.005111925303936005
data_robot_give_0526,000001,132,4.400000095367432,266,0,"[0.01201647985726595, 0.0009536888683214784, 0.014686808921396732, 0.010109102353453636, 0.020027466118335724, 0.04482337832450867, -0.006030021235346794, -0.12607766687870026, 1.3544288873672485, 0.5006866455078125, 0.7024872303009033, 0.051689937710762024, -0.0398641936480999, 0.005111925303936005]",-0.006030021235346794,0.005111925303936005,0.01201647985726595,0.0009536888683214784,0.014686808921396732,0.010109102353453636,0.020027466118335724,0.04482337832450867,-0.006030021235346794,-0.12607766687870026,1.3544288873672485,0.5006866455078125,0.7024872303009033,0.051689937710762024,-0.0398641936480999,0.005111925303936005
data_robot_give_0526,000001,133,4.433333396911621,267,0,"[0.01201647985726595, 0.0009536888683214784, 0.014686808921396732, 0.010109102353453636, 0.020027466118335724, 0.04482337832450867, -0.006026683375239372, -0.12607766687870026, 1.3544288873672485, 0.5006866455078125, 0.7024872303009033, 0.051689937710762024, -0.0398641936480999, 0.005118601024150848]",-0.006026683375239372,0.005118601024150848,0.01201647985726595,0.0009536888683214784,0.014686808921396732,0.010109102353453636,0.020027466118335724,0.04482337832450867,-0.006026683375239372,-0.12607766687870026,1.3544288873672485,0.5006866455078125,0.7024872303009033,0.051689937710762024,-0.0398641936480999,0.005118601024150848
data_robot_give_0526,000001,134,4.4666666984558105,268,0,"[0.012397955171763897, 0.0009536888683214784, 0.014686808921396732, 0.010109102353453636, 0.020027466118335724, 0.04482337832450867, -0.006030021235346794, -0.12645913660526276, 1.3544288873672485, 0.5006866455078125, 0.7024872303009033, 0.051689937710762024, -0.0398641936480999, 0.0051152631640434265]",-0.006030021235346794,0.0051152631640434265,0.012397955171763897,0.0009536888683214784,0.014686808921396732,0.010109102353453636,0.020027466118335724,0.04482337832450867,-0.006030021235346794,-0.12645913660526276,1.3544288873672485,0.5006866455078125,0.7024872303009033,0.051689937710762024,-0.0398641936480999,0.0051152631640434265
data_robot_give_0526,000001,135,4.5,269,0,"[0.01201647985726595, 0.0009536888683214784, 0.014686808921396732, 0.010109102353453636, 0.020027466118335724, 0.04482337832450867, -0.00602334551513195, -0.12607766687870026, 1.3544288873672485, 0.5006866455078125, 0.7024872303009033, 0.051689937710762024, -0.0398641936480999, 0.005111925303936005]",-0.00602334551513195,0.005111925303936005,0.01201647985726595,0.0009536888683214784,0.014686808921396732,0.010109102353453636,0.020027466118335724,0.04482337832450867,-0.00602334551513195,-0.12607766687870026,1.3544288873672485,0.5006866455078125,0.7024872303009033,0.051689937710762024,-0.0398641936480999,0.005111925303936005
data_robot_give_0526,000001,136,4.5333333015441895,270,0,"[0.01201647985726595, 0.0009536888683214784, 0.014686808921396732, 0.010109102353453636, 0.020027466118335724, 0.045204851776361465, -0.006030021235346794, -0.12645913660526276, 1.3544288873672485, 0.5006866455078125, 0.7024872303009033, 0.051689937710762024, -0.0398641936480999, 0.00512193888425827]",-0.006030021235346794,0.00512193888425827,0.01201647985726595,0.0009536888683214784,0.014686808921396732,0.010109102353453636,0.020027466118335724,0.045204851776361465,-0.006030021235346794,-0.12645913660526276,1.3544288873672485,0.5006866455078125,0.7024872303009033,0.051689937710762024,-0.0398641936480999,0.00512193888425827
data_robot_give_0526,000001,137,4.566666603088379,271,0,"[0.01201647985726595, 0.0009536888683214784, 0.014686808921396732, 0.010109102353453636, 0.020027466118335724, 0.04482337832450867, -0.006030021235346794, -0.12645913660526276, 1.3544288873672485, 0.5006866455078125, 0.7024872303009033, 0.051689937710762024, -0.0398641936480999, 0.005118601024150848]",-0.006030021235346794,0.005118601024150848,0.01201647985726595,0.0009536888683214784,0.014686808921396732,0.010109102353453636,0.020027466118335724,0.04482337832450867,-0.006030021235346794,-0.12645913660526276,1.3544288873672485,0.5006866455078125,0.7024872303009033,0.051689937710762024,-0.0398641936480999,0.005118601024150848
data_robot_give_0526,000001,138,4.599999904632568,272,0,"[0.01201647985726595, 0.0009536888683214784, 0.014686808921396732, 0.010109102353453636, 0.020027466118335724, 0.045204851776361465, -0.006026683375239372, -0.12645913660526276, 1.3544288873672485, 0.5006866455078125, 0.7024872303009033, 0.051689937710762024, -0.0398641936480999, 0.0051152631640434265]",-0.006026683375239372,0.0051152631640434265,0.01201647985726595,0.0009536888683214784,0.014686808921396732,0.010109102353453636,0.020027466118335724,0.045204851776361465,-0.006026683375239372,-0.12645913660526276,1.3544288873672485,0.5006866455078125,0.7024872303009033,0.051689937710762024,-0.0398641936480999,0.0051152631640434265
data_robot_give_0526,000001,139,4.633333206176758,273,0,"[0.01201647985726595, 0.0009536888683214784, 0.014686808921396732, 0.010109102353453636, 0.020027466118335724, 0.04482337832450867, -0.006030021235346794, -0.12645913660526276, 1.3544288873672485, 0.5006866455078125, 0.7024872303009033, 0.051689937710762024, -0.0398641936480999, 0.0051152631640434265]",-0.006030021235346794,0.0051152631640434265,0.01201647985726595,0.0009536888683214784,0.014686808921396732,0.010109102353453636,0.020027466118335724,0.04482337832450867,-0.006030021235346794,-0.12645913660526276,1.3544288873672485,0.5006866455078125,0.7024872303009033,0.051689937710762024,-0.0398641936480999,0.0051152631640434265
data_robot_give_0526,000001,140,4.666666507720947,274,0,"[0.01201647985726595, 0.0009536888683214784, 0.014686808921396732, 0.010109102353453636, 0.020027466118335724, 0.045204851776361465, -0.006026683375239372, -0.12645913660526276, 1.3544288873672485, 0.5006866455078125, 0.7024872303009033, 0.051689937710762024, -0.0398641936480999, 0.0051152631640434265]",-0.006026683375239372,0.0051152631640434265,0.01201647985726595,0.0009536888683214784,0.014686808921396732,0.010109102353453636,0.020027466118335724,0.045204851776361465,-0.006026683375239372,-0.12645913660526276,1.3544288873672485,0.5006866455078125,0.7024872303009033,0.051689937710762024,-0.0398641936480999,0.0051152631640434265
data_robot_give_0526,000001,141,4.699999809265137,275,0,"[0.01201647985726595, 0.0009536888683214784, 0.014686808921396732, 0.010109102353453636, 0.020027466118335724, 0.04482337832450867, -0.00602334551513195, -0.12645913660526276, 1.3544288873672485, 0.5006866455078125, 0.7024872303009033, 0.051689937710762024, -0.0398641936480999, 0.00512193888425827]",-0.00602334551513195,0.00512193888425827,0.01201647985726595,0.0009536888683214784,0.014686808921396732,0.010109102353453636,0.020027466118335724,0.04482337832450867,-0.00602334551513195,-0.12645913660526276,1.3544288873672485,0.5006866455078125,0.7024872303009033,0.051689937710762024,-0.0398641936480999,0.00512193888425827
data_robot_give_0526,000001,142,4.733333110809326,276,0,"[0.01201647985726595, 0.0009536888683214784, 0.014686808921396732, 0.010109102353453636, 0.020027466118335724, 0.04482337832450867, -0.006030021235346794, -0.12607766687870026, 1.3544288873672485, 0.5006866455078125, 0.7024872303009033, 0.051689937710762024, -0.0398641936480999, 0.005118601024150848]",-0.006030021235346794,0.005118601024150848,0.01201647985726595,0.0009536888683214784,0.014686808921396732,0.010109102353453636,0.020027466118335724,0.04482337832450867,-0.006030021235346794,-0.12607766687870026,1.3544288873672485,0.5006866455078125,0.7024872303009033,0.051689937710762024,-0.0398641936480999,0.005118601024150848
data_robot_give_0526,000001,143,4.766666889190674,277,0,"[0.01201647985726595, 0.0009536888683214784, 0.014686808921396732, 0.010109102353453636, 0.020027466118335724, 0.045204851776361465, -0.006030021235346794, -0.12645913660526276, 1.3544288873672485, 0.5006866455078125, 0.7024872303009033, 0.051689937710762024, -0.0394827201962471, 0.005118601024150848]",-0.006030021235346794,0.005118601024150848,0.01201647985726595,0.0009536888683214784,0.014686808921396732,0.010109102353453636,0.020027466118335724,0.045204851776361465,-0.006030021235346794,-0.12645913660526276,1.3544288873672485,0.5006866455078125,0.7024872303009033,0.051689937710762024,-0.0394827201962471,0.005118601024150848
data_robot_give_0526,000001,144,4.800000190734863,278,0,"[0.01201647985726595, 0.0009536888683214784, 0.014686808921396732, 0.010109102353453636, 0.020027466118335724, 0.04482337832450867, -0.00602334551513195, -0.12645913660526276, 1.3544288873672485, 0.5006866455078125, 0.7024872303009033, 0.051689937710762024, -0.0394827201962471, 0.005118601024150848]",-0.00602334551513195,0.005118601024150848,0.01201647985726595,0.0009536888683214784,0.014686808921396732,0.010109102353453636,0.020027466118335724,0.04482337832450867,-0.00602334551513195,-0.12645913660526276,1.3544288873672485,0.5006866455078125,0.7024872303009033,0.051689937710762024,-0.0394827201962471,0.005118601024150848
